(This GCode script was designed to adjust the Z height of a CNC machine according)
(to the minute variations in the surface height in order to achieve a better result in the milling/etching process)
(This script is the output of AutoLevellerAE, 0.9.5u2 Changeset: ...2d0387 @ http://autoleveller.co.uk)
(Author: James Hawthorne PhD. File creation date: 02-05-2020 18:00)
(This program and any of its output is licensed under GPLv2 and as such...)
(AutoLevellerAE comes with ABSOLUTELY NO WARRANTY; for details, see sections 11 and 12 of the GPLv2 @ http://www.gnu.org/licenses/old-licenses/gpl-2.0.html)

G90 G20 S20000 G17

M0 (Attach probe wires and clips that need attaching)
(Initialize probe routine)
G0 Z1.5 (Move clear of the board first)
G1 X0.093 Y0.2052 F35 (Move to bottom left corner)
G0 Z0.0787 (Quick move to probe clearance height)
G31 Z-0.0625 F5 (Probe to a maximum of the specified probe height at the specified feed rate)
G92 Z0 (Touch off Z to 0 once contact is made)
G0 Z0.0787 (Move Z to above the contact point)
G31 Z-0.0625 F2.5 (Repeat at a more accurate slower rate)
G92 Z0
G0 Z0.0787
M0 (Detach any clips used for probing)

s16500
G20
G90
G94
F3.00
G00 Z0.1000
M03
G4 P1
G00 X0.1790Y0.3392
G01 Z-0.00638
G01 X0.1782Y0.3474Z-0.00633
G01 X0.1757Y0.3555Z-0.00629
G01 X0.1718Y0.3629Z-0.00625
G01 X0.1664Y0.3694Z-0.00620
G01 X0.1599Y0.3748Z-0.00617
G01 X0.1525Y0.3787Z-0.00613
G01 X0.1444Y0.3812Z-0.00611
G01 X0.1360Y0.3820Z-0.00609
G01 X0.1276Y0.3812Z-0.00608
G01 X0.1195Y0.3787Z-0.00608
G01 X0.1121Y0.3748Z-0.00609
G01 X0.1056Y0.3694Z-0.00610
G01 X0.1002Y0.3629Z-0.00613
G01 X0.0963Y0.3555Z-0.00616
G01 X0.0938Y0.3474Z-0.00619
G01 X0.0930Y0.3390Z-0.00623
G01 X0.0938Y0.3306Z-0.00628
G01 X0.0963Y0.3225Z-0.00632
G01 X0.1002Y0.3151Z-0.00637
G01 X0.1056Y0.3086Z-0.00641
G01 X0.1121Y0.3032Z-0.00644
G01 X0.1195Y0.2993Z-0.00648
G01 X0.1276Y0.2968Z-0.00650
G01 X0.1360Y0.2960Z-0.00652
G01 X0.1444Y0.2968Z-0.00653
G01 X0.1525Y0.2993Z-0.00653
G01 X0.1599Y0.3032Z-0.00653
G01 X0.1664Y0.3086Z-0.00651
G01 X0.1718Y0.3151Z-0.00649
G01 X0.1757Y0.3225Z-0.00646
G01 X0.1782Y0.3306Z-0.00642
G01 X0.1790Y0.3392Z-0.00638
G00 Z0.1000
G00 X0.1790Y0.4392
G01 Z-0.00587
G01 X0.1782Y0.4474Z-0.00583
G01 X0.1757Y0.4555Z-0.00579
G01 X0.1718Y0.4629Z-0.00574
G01 X0.1664Y0.4694Z-0.00570
G01 X0.1599Y0.4748Z-0.00566
G01 X0.1525Y0.4787Z-0.00563
G01 X0.1444Y0.4812Z-0.00561
G01 X0.1360Y0.4820Z-0.00559
G01 X0.1276Y0.4812Z-0.00558
G01 X0.1195Y0.4787Z-0.00558
G01 X0.1121Y0.4748Z-0.00559
G01 X0.1056Y0.4694Z-0.00561
G01 X0.1002Y0.4629Z-0.00563
G01 X0.0963Y0.4555Z-0.00566
G01 X0.0938Y0.4474Z-0.00570
G01 X0.0930Y0.4390Z-0.00574
G01 X0.0938Y0.4306Z-0.00578
G01 X0.0963Y0.4225Z-0.00582
G01 X0.1002Y0.4151Z-0.00587
G01 X0.1056Y0.4086Z-0.00591
G01 X0.1121Y0.4032Z-0.00595
G01 X0.1195Y0.3993Z-0.00598
G01 X0.1276Y0.3968Z-0.00600
G01 X0.1360Y0.3960Z-0.00602
G01 X0.1444Y0.3968Z-0.00603
G01 X0.1525Y0.3993Z-0.00603
G01 X0.1599Y0.4032Z-0.00602
G01 X0.1664Y0.4086Z-0.00601
G01 X0.1718Y0.4151Z-0.00598
G01 X0.1757Y0.4225Z-0.00595
G01 X0.1782Y0.4306Z-0.00592
G01 X0.1790Y0.4392Z-0.00587
G00 Z0.1000
G00 X0.1790Y0.5392
G01 Z-0.00537
G01 X0.1782Y0.5474Z-0.00533
G01 X0.1757Y0.5555Z-0.00528
G01 X0.1718Y0.5629Z-0.00524
G01 X0.1664Y0.5694Z-0.00520
G01 X0.1599Y0.5748Z-0.00516
G01 X0.1525Y0.5787Z-0.00513
G01 X0.1444Y0.5812Z-0.00511
G01 X0.1360Y0.5820Z-0.00509
G01 X0.1276Y0.5812Z-0.00508
G01 X0.1195Y0.5787Z-0.00508
G01 X0.1121Y0.5748Z-0.00509
G01 X0.1056Y0.5694Z-0.00511
G01 X0.1002Y0.5629Z-0.00513
G01 X0.0963Y0.5555Z-0.00516
G01 X0.0938Y0.5474Z-0.00520
G01 X0.0930Y0.5390Z-0.00524
G01 X0.0938Y0.5306Z-0.00528
G01 X0.0963Y0.5225Z-0.00533
G01 X0.1002Y0.5151Z-0.00537
G01 X0.1056Y0.5086Z-0.00541
G01 X0.1121Y0.5032Z-0.00545
G01 X0.1195Y0.4993Z-0.00548
G01 X0.1276Y0.4968Z-0.00550
G01 X0.1360Y0.4960Z-0.00552
G01 X0.1444Y0.4968Z-0.00553
G01 X0.1525Y0.4993Z-0.00553
G01 X0.1599Y0.5032Z-0.00552
G01 X0.1664Y0.5086Z-0.00550
G01 X0.1718Y0.5151Z-0.00548
G01 X0.1757Y0.5225Z-0.00545
G01 X0.1782Y0.5306Z-0.00541
G01 X0.1790Y0.5392Z-0.00537
G00 Z0.1000
G00 X0.1790Y0.6392
G01 Z-0.00488
G01 X0.1782Y0.6474Z-0.00484
G01 X0.1757Y0.6555Z-0.00480
G01 X0.1718Y0.6629Z-0.00475
G01 X0.1664Y0.6694Z-0.00471
G01 X0.1599Y0.6748Z-0.00467
G01 X0.1525Y0.6787Z-0.00464
G01 X0.1444Y0.6812Z-0.00461
G01 X0.1360Y0.6820Z-0.00459
G01 X0.1276Y0.6812Z-0.00458
G01 X0.1195Y0.6787Z-0.00457
G01 X0.1121Y0.6748Z-0.00458
G01 X0.1056Y0.6694Z-0.00459
G01 X0.1002Y0.6629Z-0.00462
G01 X0.0963Y0.6555Z-0.00465
G01 X0.0938Y0.6474Z-0.00468
G01 X0.0930Y0.6390Z-0.00473
G01 X0.0938Y0.6306Z-0.00477
G01 X0.0963Y0.6225Z-0.00482
G01 X0.1002Y0.6151Z-0.00486
G01 X0.1056Y0.6086Z-0.00491
G01 X0.1121Y0.6032Z-0.00494
G01 X0.1195Y0.5993Z-0.00498
G01 X0.1276Y0.5968Z-0.00500
G01 X0.1360Y0.5960Z-0.00502
G01 X0.1444Y0.5968Z-0.00503
G01 X0.1525Y0.5993Z-0.00503
G01 X0.1599Y0.6032Z-0.00502
G01 X0.1664Y0.6086Z-0.00501
G01 X0.1718Y0.6151Z-0.00498
G01 X0.1757Y0.6225Z-0.00496
G01 X0.1782Y0.6306Z-0.00492
G01 X0.1790Y0.6392Z-0.00488
G00 Z0.1000
G00 X0.1790Y0.7392
G01 Z-0.00440
G01 X0.1782Y0.7474Z-0.00436
G01 X0.1757Y0.7555Z-0.00432
G01 X0.1718Y0.7629Z-0.00427
G01 X0.1664Y0.7694Z-0.00423
G01 X0.1599Y0.7748Z-0.00418
G01 X0.1525Y0.7787Z-0.00415
G01 X0.1444Y0.7812Z-0.00411
G01 X0.1360Y0.7820Z-0.00409
G01 X0.1276Y0.7812Z-0.00407
G01 X0.1195Y0.7787Z-0.00406
G01 X0.1121Y0.7748Z-0.00406
G01 X0.1056Y0.7694Z-0.00407
G01 X0.1002Y0.7629Z-0.00409
G01 X0.0963Y0.7555Z-0.00412
G01 X0.0938Y0.7474Z-0.00416
G01 X0.0930Y0.7390Z-0.00420
G01 X0.0938Y0.7306Z-0.00425
G01 X0.0963Y0.7225Z-0.00430
G01 X0.1002Y0.7151Z-0.00434
G01 X0.1056Y0.7086Z-0.00439
G01 X0.1121Y0.7032Z-0.00443
G01 X0.1195Y0.6993Z-0.00447
G01 X0.1276Y0.6968Z-0.00450
G01 X0.1360Y0.6960Z-0.00452
G01 X0.1444Y0.6968Z-0.00453
G01 X0.1525Y0.6993Z-0.00454
G01 X0.1599Y0.7032Z-0.00453
G01 X0.1664Y0.7086Z-0.00452
G01 X0.1718Y0.7151Z-0.00450
G01 X0.1757Y0.7225Z-0.00448
G01 X0.1782Y0.7306Z-0.00444
G01 X0.1790Y0.7392Z-0.00440
G00 Z0.1000
G00 X0.1790Y0.8392
G01 Z-0.00392
G01 X0.1782Y0.8474Z-0.00388
G01 X0.1757Y0.8555Z-0.00384
G01 X0.1718Y0.8629Z-0.00379
G01 X0.1664Y0.8694Z-0.00374
G01 X0.1599Y0.8748Z-0.00370
G01 X0.1525Y0.8787Z-0.00365
G01 X0.1444Y0.8812Z-0.00362
G01 X0.1360Y0.8820Z-0.00359
G01 X0.1276Y0.8812Z-0.00356
G01 X0.1195Y0.8787Z-0.00355
G01 X0.1121Y0.8748Z-0.00355
G01 X0.1056Y0.8694Z-0.00356
G01 X0.1002Y0.8629Z-0.00357
G01 X0.0963Y0.8555Z-0.00360
G01 X0.0938Y0.8474Z-0.00364
G01 X0.0930Y0.8390Z-0.00368
G01 X0.0938Y0.8306Z-0.00372
G01 X0.0963Y0.8225Z-0.00377
G01 X0.1002Y0.8151Z-0.00382
G01 X0.1056Y0.8086Z-0.00387
G01 X0.1121Y0.8032Z-0.00392
G01 X0.1195Y0.7993Z-0.00396
G01 X0.1276Y0.7968Z-0.00399
G01 X0.1360Y0.7960Z-0.00402
G01 X0.1444Y0.7968Z-0.00404
G01 X0.1525Y0.7993Z-0.00404
G01 X0.1599Y0.8032Z-0.00405
G01 X0.1664Y0.8086Z-0.00404
G01 X0.1718Y0.8151Z-0.00402
G01 X0.1757Y0.8225Z-0.00400
G01 X0.1782Y0.8306Z-0.00396
G01 X0.1790Y0.8392Z-0.00392
G00 Z0.1000
G00 X0.1790Y0.9392
G01 Z-0.00345
G01 X0.1782Y0.9474Z-0.00340
G01 X0.1757Y0.9555Z-0.00336
G01 X0.1718Y0.9629Z-0.00332
G01 X0.1664Y0.9694Z-0.00328
G01 X0.1599Y0.9748Z-0.00323
G01 X0.1525Y0.9787Z-0.00320
G01 X0.1444Y0.9812Z-0.00316
G01 X0.1360Y0.9820Z-0.00313
G01 X0.1276Y0.9812Z-0.00310
G01 X0.1195Y0.9787Z-0.00308
G01 X0.1121Y0.9748Z-0.00307
G01 X0.1056Y0.9694Z-0.00306
G01 X0.1002Y0.9629Z-0.00306
G01 X0.0963Y0.9555Z-0.00308
G01 X0.0938Y0.9474Z-0.00311
G01 X0.0930Y0.9390Z-0.00315
G01 X0.0938Y0.9306Z-0.00320
G01 X0.0963Y0.9225Z-0.00325
G01 X0.1002Y0.9151Z-0.00330
G01 X0.1056Y0.9086Z-0.00335
G01 X0.1121Y0.9032Z-0.00340
G01 X0.1195Y0.8993Z-0.00345
G01 X0.1276Y0.8968Z-0.00349
G01 X0.1360Y0.8960Z-0.00352
G01 X0.1444Y0.8968Z-0.00354
G01 X0.1525Y0.8993Z-0.00355
G01 X0.1599Y0.9032Z-0.00356
G01 X0.1664Y0.9086Z-0.00355
G01 X0.1718Y0.9151Z-0.00354
G01 X0.1757Y0.9225Z-0.00352
G01 X0.1782Y0.9306Z-0.00349
G01 X0.1790Y0.9392Z-0.00345
G00 Z0.1000
G00 X0.1790Y1.0392
G01 Z-0.00309
G01 X0.1782Y1.0474Z-0.00306
G01 X0.1757Y1.0555Z-0.00302
G01 X0.1718Y1.0629Z-0.00298
G01 X0.1664Y1.0694Z-0.00294
G01 X0.1599Y1.0748Z-0.00290
G01 X0.1525Y1.0787Z-0.00286
G01 X0.1444Y1.0812Z-0.00282
G01 X0.1360Y1.0820Z-0.00279
G01 X0.1276Y1.0812Z-0.00276
G01 X0.1195Y1.0787Z-0.00274
G01 X0.1121Y1.0748Z-0.00273
G01 X0.1056Y1.0694Z-0.00272
G01 X0.1002Y1.0629Z-0.00272
G01 X0.0963Y1.0555Z-0.00274
G01 X0.0938Y1.0474Z-0.00275
G01 X0.0930Y1.0390Z-0.00278
G01 X0.0938Y1.0306Z-0.00281
G01 X0.0963Y1.0225Z-0.00285
G01 X0.1002Y1.0151Z-0.00289
G01 X0.1056Y1.0086Z-0.00293
G01 X0.1121Y1.0032Z-0.00297
G01 X0.1195Y0.9993Z-0.00301
G01 X0.1276Y0.9968Z-0.00305
G01 X0.1360Y0.9960Z-0.00308
G01 X0.1444Y0.9968Z-0.00311
G01 X0.1525Y0.9993Z-0.00313
G01 X0.1599Y1.0032Z-0.00314
G01 X0.1664Y1.0086Z-0.00314
G01 X0.1718Y1.0151Z-0.00314
G01 X0.1757Y1.0225Z-0.00313
G01 X0.1782Y1.0306Z-0.00311
G01 X0.1790Y1.0392Z-0.00309
G00 Z0.1000
G00 X0.1790Y1.1392
G01 Z-0.00275
G01 X0.1782Y1.1474Z-0.00272
G01 X0.1757Y1.1555Z-0.00269
G01 X0.1718Y1.1629Z-0.00265
G01 X0.1664Y1.1694Z-0.00260
G01 X0.1599Y1.1748Z-0.00256
G01 X0.1525Y1.1787Z-0.00252
G01 X0.1444Y1.1812Z-0.00248
G01 X0.1360Y1.1820Z-0.00245
G01 X0.1276Y1.1812Z-0.00242
G01 X0.1195Y1.1787Z-0.00240
G01 X0.1121Y1.1748Z-0.00239
G01 X0.1056Y1.1694Z-0.00238
G01 X0.1002Y1.1629Z-0.00238
G01 X0.0963Y1.1555Z-0.00240
G01 X0.0938Y1.1474Z-0.00241
G01 X0.0930Y1.1390Z-0.00244
G01 X0.0938Y1.1306Z-0.00247
G01 X0.0963Y1.1225Z-0.00251
G01 X0.1002Y1.1151Z-0.00255
G01 X0.1056Y1.1086Z-0.00259
G01 X0.1121Y1.1032Z-0.00263
G01 X0.1195Y1.0993Z-0.00267
G01 X0.1276Y1.0968Z-0.00271
G01 X0.1360Y1.0960Z-0.00274
G01 X0.1444Y1.0968Z-0.00277
G01 X0.1525Y1.0993Z-0.00279
G01 X0.1599Y1.1032Z-0.00280
G01 X0.1664Y1.1086Z-0.00281
G01 X0.1718Y1.1151Z-0.00281
G01 X0.1757Y1.1225Z-0.00280
G01 X0.1782Y1.1306Z-0.00278
G01 X0.1790Y1.1392Z-0.00275
G00 Z0.1000
G00 X0.1790Y1.2392
G01 Z-0.00242
G01 X0.1782Y1.2474Z-0.00239
G01 X0.1757Y1.2555Z-0.00235
G01 X0.1718Y1.2629Z-0.00231
G01 X0.1664Y1.2694Z-0.00227
G01 X0.1599Y1.2748Z-0.00223
G01 X0.1525Y1.2787Z-0.00219
G01 X0.1444Y1.2812Z-0.00215
G01 X0.1360Y1.2820Z-0.00211
G01 X0.1276Y1.2812Z-0.00208
G01 X0.1195Y1.2787Z-0.00206
G01 X0.1121Y1.2748Z-0.00205
G01 X0.1056Y1.2694Z-0.00204
G01 X0.1002Y1.2629Z-0.00204
G01 X0.0963Y1.2555Z-0.00206
G01 X0.0938Y1.2474Z-0.00207
G01 X0.0930Y1.2390Z-0.00210
G01 X0.0938Y1.2306Z-0.00213
G01 X0.0963Y1.2225Z-0.00217
G01 X0.1002Y1.2151Z-0.00221
G01 X0.1056Y1.2086Z-0.00225
G01 X0.1121Y1.2032Z-0.00229
G01 X0.1195Y1.1993Z-0.00233
G01 X0.1276Y1.1968Z-0.00237
G01 X0.1360Y1.1960Z-0.00240
G01 X0.1444Y1.1968Z-0.00243
G01 X0.1525Y1.1993Z-0.00245
G01 X0.1599Y1.2032Z-0.00247
G01 X0.1664Y1.2086Z-0.00247
G01 X0.1718Y1.2151Z-0.00247
G01 X0.1757Y1.2225Z-0.00246
G01 X0.1782Y1.2306Z-0.00244
G01 X0.1790Y1.2392Z-0.00242
G00 Z0.1000
G00 X0.1734Y1.3601
G01 Z-0.00203
G01 X0.1692Y1.3663Z-0.00201
G01 X0.1633Y1.3722Z-0.00198
G01 X0.1563Y1.3769Z-0.00194
G01 X0.1485Y1.3801Z-0.00191
G01 X0.1402Y1.3818Z-0.00187
G01 X0.1318Y1.3818Z-0.00184
G01 X0.1235Y1.3801Z-0.00182
G01 X0.1157Y1.3769Z-0.00179
G01 X0.1087Y1.3722Z-0.00178
G01 X0.1028Y1.3663Z-0.00176
G01 X0.0981Y1.3593Z-0.00176
G01 X0.0949Y1.3515Z-0.00176
G01 X0.0932Y1.3432Z-0.00176
G01 X0.0932Y1.3348Z-0.00178
G01 X0.0949Y1.3265Z-0.00181
G01 X0.0981Y1.3187Z-0.00185
G01 X0.1056Y1.3086Z-0.00191
G01 X0.1154Y1.3013Z-0.00197
G01 X0.1239Y1.2977Z-0.00202
G01 X0.1364Y1.2960Z-0.00207
G01 X0.1485Y1.2979Z-0.00211
G01 X0.1596Y1.3030Z-0.00213
G01 X0.1690Y1.3114Z-0.00214
G01 X0.1746Y1.3201Z-0.00213
G01 X0.2375Y1.3210Z-0.00236
G01 X0.2449Y1.3226Z-0.00239
G01 X0.2511Y1.3268Z-0.00240
G01 X0.3511Y1.4259Z-0.00254
G01 X0.3538Y1.4292Z-0.00254
G01 X0.3561Y1.4341Z-0.00254
G01 X0.3570Y1.4400Z-0.00253
G01 X0.35700Y1.62700Z-0.00211 ;segmented line. Max segment length set to 0.187
G01 X0.35700Y1.81400Z-0.00209 ;segmented line. Max segment length set to 0.187
G01 X0.3570Y1.9290Z-0.00227
G01 X0.4445Y2.0209Z-0.00260
G01 X0.63150Y2.01956Z-0.00293 ;segmented line. Max segment length set to 0.187
G01 X0.6951Y2.0191Z-0.00303
G01 X0.6984Y2.0134Z-0.00304
G01 X0.7041Y2.0066Z-0.00304
G01 X0.7107Y2.0012Z-0.00305
G01 X0.7186Y1.9970Z-0.00306
G01 X0.7271Y1.9944Z-0.00307
G01 X0.7356Y1.9935Z-0.00309
G01 X0.7408Y1.9938Z-0.00310
G01 X0.7496Y1.9956Z-0.00311
G01 X0.7613Y2.0012Z-0.00314
G01 X0.7709Y2.0098Z-0.00316
G01 X0.7763Y2.0179Z-0.00317
G01 X0.7806Y2.0301Z-0.00318
G01 X0.7813Y2.0435Z-0.00319
G01 X0.7782Y2.0560Z-0.00319
G01 X0.7736Y2.0646Z-0.00319
G01 X0.7649Y2.0742Z-0.00318
G01 X0.7574Y2.0791Z-0.00317
G01 X0.7488Y2.0826Z-0.00316
G01 X0.7364Y2.0845Z-0.00315
G01 X0.7271Y2.0836Z-0.00313
G01 X0.7182Y2.0809Z-0.00312
G01 X0.7074Y2.0744Z-0.00310
G01 X0.7008Y2.0679Z-0.00308
G01 X0.6952Y2.0591Z-0.00306
G01 X0.50821Y2.06047Z-0.00277 ;segmented line. Max segment length set to 0.187
G01 X0.4361Y2.0610Z-0.00264
G01 X0.4303Y2.0602Z-0.00262
G01 X0.4258Y2.0582Z-0.00261
G01 X0.4217Y2.0549Z-0.00260
G01 X0.3215Y1.9497Z-0.00222
G01 X0.3183Y1.9442Z-0.00220
G01 X0.3170Y1.9370Z-0.00219
G01 X0.31700Y1.75000Z-0.00188 ;segmented line. Max segment length set to 0.187
G01 X0.31700Y1.56300Z-0.00213 ;segmented line. Max segment length set to 0.187
G01 X0.3170Y1.4483Z-0.00237
G01 X0.2287Y1.3609Z-0.00224
G01 X0.1734Y1.3601Z-0.00203
G00 Z0.1000
G00 X0.1790Y1.4392
G01 Z-0.00191
G01 X0.1782Y1.4474Z-0.00190
G01 X0.1757Y1.4555Z-0.00187
G01 X0.1718Y1.4629Z-0.00185
G01 X0.1664Y1.4694Z-0.00182
G01 X0.1599Y1.4748Z-0.00178
G01 X0.1525Y1.4787Z-0.00175
G01 X0.1444Y1.4812Z-0.00172
G01 X0.1360Y1.4820Z-0.00169
G01 X0.1276Y1.4812Z-0.00166
G01 X0.1195Y1.4787Z-0.00164
G01 X0.1121Y1.4748Z-0.00162
G01 X0.1056Y1.4694Z-0.00161
G01 X0.1002Y1.4629Z-0.00160
G01 X0.0963Y1.4555Z-0.00160
G01 X0.0938Y1.4474Z-0.00160
G01 X0.0930Y1.4390Z-0.00161
G01 X0.0938Y1.4306Z-0.00163
G01 X0.0963Y1.4225Z-0.00165
G01 X0.1002Y1.4151Z-0.00168
G01 X0.1056Y1.4086Z-0.00171
G01 X0.1121Y1.4032Z-0.00174
G01 X0.1195Y1.3993Z-0.00177
G01 X0.1276Y1.3968Z-0.00180
G01 X0.1360Y1.3960Z-0.00184
G01 X0.1444Y1.3968Z-0.00186
G01 X0.1525Y1.3993Z-0.00189
G01 X0.1599Y1.4032Z-0.00191
G01 X0.1664Y1.4086Z-0.00192
G01 X0.1718Y1.4151Z-0.00193
G01 X0.1757Y1.4225Z-0.00193
G01 X0.1782Y1.4306Z-0.00193
G01 X0.1790Y1.4392Z-0.00191
G00 Z0.1000
G00 X0.1790Y1.5392
G01 Z-0.00173
G01 X0.1782Y1.5474Z-0.00172
G01 X0.1757Y1.5555Z-0.00169
G01 X0.1718Y1.5629Z-0.00167
G01 X0.1664Y1.5694Z-0.00164
G01 X0.1599Y1.5748Z-0.00161
G01 X0.1525Y1.5787Z-0.00158
G01 X0.1444Y1.5812Z-0.00155
G01 X0.1360Y1.5820Z-0.00152
G01 X0.1276Y1.5812Z-0.00150
G01 X0.1195Y1.5787Z-0.00148
G01 X0.1121Y1.5748Z-0.00146
G01 X0.1056Y1.5694Z-0.00145
G01 X0.1002Y1.5629Z-0.00144
G01 X0.0963Y1.5555Z-0.00144
G01 X0.0938Y1.5474Z-0.00145
G01 X0.0930Y1.5390Z-0.00146
G01 X0.0938Y1.5306Z-0.00147
G01 X0.0963Y1.5225Z-0.00149
G01 X0.1002Y1.5151Z-0.00152
G01 X0.1056Y1.5086Z-0.00155
G01 X0.1121Y1.5032Z-0.00158
G01 X0.1195Y1.4993Z-0.00161
G01 X0.1276Y1.4968Z-0.00164
G01 X0.1360Y1.4960Z-0.00167
G01 X0.1444Y1.4968Z-0.00169
G01 X0.1525Y1.4993Z-0.00172
G01 X0.1599Y1.5032Z-0.00173
G01 X0.1664Y1.5086Z-0.00175
G01 X0.1718Y1.5151Z-0.00175
G01 X0.1757Y1.5225Z-0.00175
G01 X0.1782Y1.5306Z-0.00175
G01 X0.1790Y1.5392Z-0.00173
G00 Z0.1000
G00 X0.1790Y1.6392
G01 Z-0.00155
G01 X0.1782Y1.6474Z-0.00154
G01 X0.1757Y1.6555Z-0.00151
G01 X0.1718Y1.6629Z-0.00149
G01 X0.1664Y1.6694Z-0.00146
G01 X0.1599Y1.6748Z-0.00143
G01 X0.1525Y1.6787Z-0.00141
G01 X0.1444Y1.6812Z-0.00138
G01 X0.1360Y1.6820Z-0.00135
G01 X0.1276Y1.6812Z-0.00133
G01 X0.1195Y1.6787Z-0.00131
G01 X0.1121Y1.6748Z-0.00130
G01 X0.1056Y1.6694Z-0.00129
G01 X0.1002Y1.6629Z-0.00128
G01 X0.0963Y1.6555Z-0.00128
G01 X0.0938Y1.6474Z-0.00129
G01 X0.0930Y1.6390Z-0.00130
G01 X0.0938Y1.6306Z-0.00131
G01 X0.0963Y1.6225Z-0.00134
G01 X0.1002Y1.6151Z-0.00136
G01 X0.1056Y1.6086Z-0.00139
G01 X0.1121Y1.6032Z-0.00141
G01 X0.1195Y1.5993Z-0.00144
G01 X0.1276Y1.5968Z-0.00147
G01 X0.1360Y1.5960Z-0.00150
G01 X0.1444Y1.5968Z-0.00152
G01 X0.1525Y1.5993Z-0.00154
G01 X0.1599Y1.6032Z-0.00156
G01 X0.1664Y1.6086Z-0.00157
G01 X0.1718Y1.6151Z-0.00157
G01 X0.1757Y1.6225Z-0.00157
G01 X0.1782Y1.6306Z-0.00157
G01 X0.1790Y1.6392Z-0.00155
G00 Z0.1000
G00 X0.0930Y1.7385
G01 Z-0.00125
G01 X0.0931Y1.7028Z-0.00120
G01 X0.0946Y1.6992Z-0.00121
G01 X0.0976Y1.6968Z-0.00122
G01 X0.1010Y1.6960Z-0.00123
G01 X0.1710Y1.6960Z-0.00143
G01 X0.1744Y1.6968Z-0.00144
G01 X0.1778Y1.6999Z-0.00144
G01 X0.1790Y1.7036Z-0.00144
G01 X0.1790Y1.7740Z-0.00155
G01 X0.1782Y1.7774Z-0.00156
G01 X0.1751Y1.7809Z-0.00156
G01 X0.1714Y1.7820Z-0.00155
G01 X0.1010Y1.7820Z-0.00137
G01 X0.0976Y1.7812Z-0.00135
G01 X0.0946Y1.7788Z-0.00134
G01 X0.0931Y1.7752Z-0.00133
G01 X0.0930Y1.7385Z-0.00125
G00 Z0.1000
G00 X0.5030Y1.6391
G01 Z-0.00250
G01 X0.50300Y1.45210Z-0.00299 ;segmented line. Max segment length set to 0.187
G01 X0.50300Y1.26510Z-0.00351 ;segmented line. Max segment length set to 0.187
G01 X0.50300Y1.07810Z-0.00410 ;segmented line. Max segment length set to 0.187
G01 X0.50300Y0.89110Z-0.00469 ;segmented line. Max segment length set to 0.187
G01 X0.50300Y0.70410Z-0.00528 ;segmented line. Max segment length set to 0.187
G01 X0.50300Y0.51710Z-0.00600 ;segmented line. Max segment length set to 0.187
G01 X0.5030Y0.3370Z-0.00693
G01 X0.5044Y0.3277Z-0.00698
G01 X0.5086Y0.3189Z-0.00703
G01 X0.5124Y0.3144Z-0.00706
G01 X0.6129Y0.2138Z-0.00771
G01 X0.6172Y0.2104Z-0.00773
G01 X0.6224Y0.2076Z-0.00775
G01 X0.6319Y0.2052Z-0.00777
G01 X0.81889Y0.20742Z-0.00800 ;segmented line. Max segment length set to 0.187
G01 X1.00588Y0.20964Z-0.00832 ;segmented line. Max segment length set to 0.187
G01 X1.0362Y0.2100Z-0.00838
G01 X1.1395Y0.2102Z-0.00859
G01 X1.1482Y0.2124Z-0.00860
G01 X1.1566Y0.2175Z-0.00860
G01 X1.2296Y0.2898Z-0.00850
G01 X1.2408Y0.2896Z-0.00852
G01 X1.2447Y0.2850Z-0.00854
G01 X1.3130Y0.2188Z-0.00893
G01 X1.3199Y0.2138Z-0.00897
G01 X1.3284Y0.2107Z-0.00901
G01 X1.3350Y0.2100Z-0.00903
G01 X1.52200Y0.21000Z-0.00954 ;segmented line. Max segment length set to 0.187
G01 X1.5342Y0.2100Z-0.00957
G01 X1.5434Y0.2114Z-0.00959
G01 X1.5522Y0.2157Z-0.00959
G01 X1.5566Y0.2194Z-0.00959
G01 X1.6559Y0.3196Z-0.00936
G01 X1.6613Y0.3271Z-0.00934
G01 X1.6644Y0.3359Z-0.00930
G01 X1.6650Y0.3420Z-0.00927
G01 X1.66500Y0.52900Z-0.00834 ;segmented line. Max segment length set to 0.187
G01 X1.66500Y0.71600Z-0.00730 ;segmented line. Max segment length set to 0.187
G01 X1.6650Y0.8402Z-0.00659
G01 X1.6644Y0.8462Z-0.00656
G01 X1.6627Y0.8519Z-0.00652
G01 X1.6574Y0.8607Z-0.00646
G01 X1.5661Y0.9512Z-0.00585
G01 X1.56756Y1.13819Z-0.00539 ;segmented line. Max segment length set to 0.187
G01 X1.5680Y1.1948Z-0.00526
G01 X1.5675Y1.2006Z-0.00525
G01 X1.5746Y1.2078Z-0.00524
G01 X1.5819Y1.2200Z-0.00521
G01 X1.5848Y1.2297Z-0.00519
G01 X1.5854Y1.2435Z-0.00516
G01 X1.5836Y1.2530Z-0.00514
G01 X1.5817Y1.2584Z-0.00512
G01 X1.5773Y1.2666Z-0.00510
G01 X1.5711Y1.2741Z-0.00508
G01 X1.5639Y1.2801Z-0.00505
G01 X1.5591Y1.2830Z-0.00504
G01 X1.5504Y1.2865Z-0.00503
G01 X1.5413Y1.2884Z-0.00501
G01 X1.5311Y1.2884Z-0.00500
G01 X1.5216Y1.2865Z-0.00500
G01 X1.5126Y1.2828Z-0.00500
G01 X1.5045Y1.2774Z-0.00500
G01 X1.4976Y1.2705Z-0.00501
G01 X1.4922Y1.2624Z-0.00502
G01 X1.4885Y1.2534Z-0.00504
G01 X1.4866Y1.2439Z-0.00506
G01 X1.4872Y1.2297Z-0.00510
G01 X1.4901Y1.2200Z-0.00512
G01 X1.4974Y1.2078Z-0.00516
G01 X1.5045Y1.2006Z-0.00518
G01 X1.50272Y1.01361Z-0.00562 ;segmented line. Max segment length set to 0.187
G01 X1.5022Y0.9586Z-0.00575
G01 X1.4910Y0.9588Z-0.00574
G01 X1.4908Y0.9839Z-0.00568
G01 X1.4884Y0.9879Z-0.00567
G01 X1.4842Y0.9899Z-0.00566
G01 X1.3886Y0.9900Z-0.00556
G01 X1.3856Y0.9892Z-0.00556
G01 X1.3831Y0.9874Z-0.00556
G01 X1.3815Y0.9847Z-0.00557
G01 X1.3810Y0.9820Z-0.00557
G01 X1.3810Y0.8956Z-0.00597
G01 X1.3821Y0.8919Z-0.00599
G01 X1.3842Y0.8896Z-0.00601
G01 X1.3890Y0.8880Z-0.00602
G01 X1.4849Y0.8882Z-0.00612
G01 X1.4889Y0.8906Z-0.00611
G01 X1.4909Y0.8948Z-0.00609
G01 X1.4910Y0.9188Z-0.00596
G01 X1.5087Y0.9184Z-0.00598
G01 X1.6010Y0.8266Z-0.00660
G01 X1.60100Y0.63960Z-0.00767 ;segmented line. Max segment length set to 0.187
G01 X1.60100Y0.45260Z-0.00861 ;segmented line. Max segment length set to 0.187
G01 X1.6010Y0.3552Z-0.00907
G01 X1.5207Y0.2740Z-0.00925
G01 X1.3480Y0.2740Z-0.00882
G01 X1.2854Y0.3341Z-0.00846
G01 X1.2854Y0.3439Z-0.00843
G01 X1.2834Y0.3538Z-0.00839
G01 X1.2796Y0.3627Z-0.00835
G01 X1.2714Y0.3738Z-0.00829
G01 X1.2672Y0.3776Z-0.00827
G01 X1.2591Y0.3830Z-0.00824
G01 X1.2504Y0.3865Z-0.00821
G01 X1.2409Y0.3884Z-0.00818
G01 X1.2311Y0.3884Z-0.00816
G01 X1.2212Y0.3864Z-0.00815
G01 X1.2087Y0.3805Z-0.00815
G01 X1.2009Y0.3741Z-0.00815
G01 X1.1947Y0.3666Z-0.00816
G01 X1.1900Y0.3576Z-0.00819
G01 X1.1872Y0.3483Z-0.00821
G01 X1.1865Y0.3358Z-0.00825
G01 X1.1815Y0.3318Z-0.00826
G01 X1.1229Y0.2740Z-0.00834
G01 X1.0356Y0.2740Z-0.00816
G01 X0.84861Y0.27168Z-0.00781 ;segmented line. Max segment length set to 0.187
G01 X0.66162Y0.26937Z-0.00753 ;segmented line. Max segment length set to 0.187
G01 X0.6481Y0.2692Z-0.00751
G01 X0.5670Y0.3503Z-0.00699
G01 X0.56700Y0.53730Z-0.00608 ;segmented line. Max segment length set to 0.187
G01 X0.56700Y0.72430Z-0.00539 ;segmented line. Max segment length set to 0.187
G01 X0.56700Y0.91130Z-0.00477 ;segmented line. Max segment length set to 0.187
G01 X0.56700Y1.09830Z-0.00419 ;segmented line. Max segment length set to 0.187
G01 X0.56700Y1.28530Z-0.00361 ;segmented line. Max segment length set to 0.187
G01 X0.56700Y1.47230Z-0.00310 ;segmented line. Max segment length set to 0.187
G01 X0.5670Y1.6257Z-0.00270
G01 X0.6492Y1.7070Z-0.00269
G01 X0.6962Y1.7070Z-0.00281
G01 X0.7057Y1.7085Z-0.00283
G01 X0.7121Y1.7032Z-0.00286
G01 X0.7195Y1.6993Z-0.00289
G01 X0.7276Y1.6968Z-0.00291
G01 X0.7356Y1.6960Z-0.00294
G01 X0.7485Y1.6979Z-0.00296
G01 X0.7596Y1.7030Z-0.00298
G01 X0.7695Y1.7120Z-0.00299
G01 X0.7739Y1.7187Z-0.00300
G01 X0.7771Y1.7265Z-0.00302
G01 X0.7790Y1.7394Z-0.00303
G01 X0.7782Y1.7474Z-0.00303
G01 X0.7757Y1.7555Z-0.00303
G01 X0.7692Y1.7663Z-0.00302
G01 X0.7602Y1.7745Z-0.00300
G01 X0.7521Y1.7789Z-0.00299
G01 X0.7402Y1.7818Z-0.00296
G01 X0.7318Y1.7818Z-0.00294
G01 X0.7231Y1.7800Z-0.00292
G01 X0.7124Y1.7750Z-0.00289
G01 X0.7057Y1.7695Z-0.00287
G01 X0.6962Y1.7710Z-0.00285
G01 X0.6360Y1.7710Z-0.00271
G01 X0.6298Y1.7704Z-0.00270
G01 X0.6238Y1.7686Z-0.00268
G01 X0.6184Y1.7657Z-0.00266
G01 X0.6136Y1.7619Z-0.00265
G01 X0.5121Y1.6613Z-0.00247
G01 X0.5084Y1.6568Z-0.00247
G01 X0.5054Y1.6512Z-0.00248
G01 X0.5036Y1.6453Z-0.00249
G01 X0.5030Y1.6391Z-0.00250
G00 Z0.1000
G00 X0.7663Y1.6695
G01 Z-0.00308
G01 X0.7599Y1.6748Z-0.00305
G01 X0.7525Y1.6787Z-0.00302
G01 X0.7444Y1.6812Z-0.00300
G01 X0.7360Y1.6820Z-0.00297
G01 X0.7276Y1.6812Z-0.00295
G01 X0.7195Y1.6787Z-0.00294
G01 X0.7121Y1.6748Z-0.00293
G01 X0.7056Y1.6694Z-0.00293
G01 X0.7002Y1.6629Z-0.00293
G01 X0.6963Y1.6555Z-0.00294
G01 X0.6938Y1.6474Z-0.00296
G01 X0.6930Y1.6390Z-0.00298
G01 X0.6938Y1.6306Z-0.00300
G01 X0.6963Y1.6225Z-0.00303
G01 X0.7002Y1.6151Z-0.00306
G01 X0.7056Y1.6086Z-0.00309
G01 X0.7121Y1.6032Z-0.00312
G01 X0.7195Y1.5993Z-0.00315
G01 X0.7276Y1.5968Z-0.00317
G01 X0.7360Y1.5960Z-0.00320
G01 X0.7444Y1.5968Z-0.00322
G01 X0.7525Y1.5993Z-0.00323
G01 X0.7599Y1.6032Z-0.00324
G01 X0.7663Y1.6085Z-0.00324
G01 X0.7762Y1.6070Z-0.00327
G01 X0.96320Y1.60821Z-0.00361 ;segmented line. Max segment length set to 0.187
G01 X0.9775Y1.6083Z-0.00362
G01 X0.9520Y1.5832Z-0.00366
G01 X0.9410Y1.5857Z-0.00364
G01 X0.9314Y1.5858Z-0.00363
G01 X0.9220Y1.5839Z-0.00363
G01 X0.9102Y1.5783Z-0.00363
G01 X0.9059Y1.5751Z-0.00364
G01 X0.8997Y1.5688Z-0.00365
G01 X0.8926Y1.5570Z-0.00367
G01 X0.8898Y1.5478Z-0.00369
G01 X0.8892Y1.5348Z-0.00372
G01 X0.8910Y1.5254Z-0.00375
G01 X0.8947Y1.5165Z-0.00378
G01 X0.9025Y1.5061Z-0.00381
G01 X0.9099Y1.4999Z-0.00384
G01 X0.9184Y1.4954Z-0.00386
G01 X0.9310Y1.4923Z-0.00388
G01 X0.9410Y1.4923Z-0.00389
G01 X0.9540Y1.4956Z-0.00389
G01 X0.9624Y1.5001Z-0.00389
G01 X0.9721Y1.5089Z-0.00387
G01 X0.9776Y1.5172Z-0.00386
G01 X0.9821Y1.5298Z-0.00383
G01 X0.9828Y1.5436Z-0.00379
G01 X0.9802Y1.5548Z-0.00376
G01 X1.0348Y1.6087Z-0.00368
G01 X1.2031Y1.6098Z-0.00384
G01 X1.20349Y1.42280Z-0.00433 ;segmented line. Max segment length set to 0.187
G01 X1.20388Y1.23580Z-0.00481 ;segmented line. Max segment length set to 0.187
G01 X1.2041Y1.1340Z-0.00506
G01 X1.2064Y1.1249Z-0.00508
G01 X1.2112Y1.1168Z-0.00510
G01 X1.2436Y1.0838Z-0.00520
G01 X1.2319Y1.0843Z-0.00520
G01 X1.2228Y1.0825Z-0.00519
G01 X1.2142Y1.0789Z-0.00520
G01 X1.2041Y1.0714Z-0.00521
G01 X1.1982Y1.0643Z-0.00522
G01 X1.1938Y1.0560Z-0.00524
G01 X1.1908Y1.0438Z-0.00527
G01 X1.1907Y1.0345Z-0.00529
G01 X1.1941Y1.0212Z-0.00532
G01 X1.1982Y1.0137Z-0.00535
G01 X1.2038Y1.0068Z-0.00537
G01 X1.2149Y0.9987Z-0.00539
G01 X1.2228Y0.9955Z-0.00540
G01 X1.2312Y0.9938Z-0.00541
G01 X1.2449Y0.9944Z-0.00542
G01 X1.2574Y0.9989Z-0.00541
G01 X1.2682Y1.0068Z-0.00540
G01 X1.2736Y1.0134Z-0.00539
G01 X1.2769Y1.0192Z-0.00538
G01 X1.3030Y1.0195Z-0.00540
G01 X1.30300Y0.83250Z-0.00624 ;segmented line. Max segment length set to 0.187
G01 X1.3030Y0.6595Z-0.00720
G01 X1.2767Y0.6592Z-0.00717
G01 X1.2709Y0.6682Z-0.00711
G01 X1.2613Y0.6768Z-0.00705
G01 X1.2496Y0.6824Z-0.00700
G01 X1.2405Y0.6843Z-0.00697
G01 X1.2312Y0.6842Z-0.00696
G01 X1.2186Y0.6810Z-0.00695
G01 X1.2074Y0.6744Z-0.00697
G01 X1.2008Y0.6679Z-0.00699
G01 X1.1959Y0.6604Z-0.00702
G01 X1.1924Y0.6518Z-0.00706
G01 X1.1905Y0.6394Z-0.00712
G01 X1.1913Y0.6305Z-0.00717
G01 X1.1941Y0.6212Z-0.00723
G01 X1.2006Y0.6104Z-0.00729
G01 X1.2071Y0.6038Z-0.00734
G01 X1.2160Y0.5982Z-0.00739
G01 X1.2160Y0.5798Z-0.00748
G01 X1.2104Y0.5766Z-0.00748
G01 X1.2038Y0.5712Z-0.00749
G01 X1.1957Y0.5601Z-0.00751
G01 X1.1925Y0.5522Z-0.00753
G01 X1.1908Y0.5438Z-0.00755
G01 X1.1914Y0.5301Z-0.00760
G01 X1.1941Y0.5212Z-0.00764
G01 X1.2008Y0.5101Z-0.00769
G01 X1.2104Y0.5014Z-0.00774
G01 X1.2190Y0.4968Z-0.00777
G01 X1.2312Y0.4938Z-0.00781
G01 X1.2408Y0.4938Z-0.00782
G01 X1.2534Y0.4970Z-0.00784
G01 X1.2646Y0.5036Z-0.00784
G01 X1.2714Y0.5104Z-0.00783
G01 X1.2780Y0.5216Z-0.00780
G01 X1.2807Y0.5305Z-0.00777
G01 X1.2813Y0.5435Z-0.00773
G01 X1.2794Y0.5526Z-0.00770
G01 X1.2738Y0.5643Z-0.00765
G01 X1.2652Y0.5739Z-0.00760
G01 X1.2560Y0.5798Z-0.00756
G01 X1.2560Y0.5982Z-0.00746
G01 X1.2616Y0.6014Z-0.00746
G01 X1.2682Y0.6068Z-0.00744
G01 X1.2736Y0.6134Z-0.00741
G01 X1.2768Y0.6190Z-0.00739
G01 X1.3109Y0.6190Z-0.00743
G01 X1.4022Y0.5276Z-0.00796
G01 X1.4045Y0.3774Z-0.00856
G01 X1.3979Y0.3708Z-0.00857
G01 X1.3945Y0.3663Z-0.00858
G01 X1.3901Y0.3580Z-0.00860
G01 X1.3874Y0.3491Z-0.00863
G01 X1.3866Y0.3435Z-0.00865
G01 X1.3866Y0.3341Z-0.00869
G01 X1.3884Y0.3250Z-0.00873
G01 X1.3903Y0.3196Z-0.00875
G01 X1.3947Y0.3114Z-0.00879
G01 X1.4012Y0.3036Z-0.00884
G01 X1.4087Y0.2975Z-0.00888
G01 X1.4212Y0.2916Z-0.00893
G01 X1.4311Y0.2896Z-0.00897
G01 X1.4409Y0.2896Z-0.00899
G01 X1.4504Y0.2915Z-0.00900
G01 X1.4594Y0.2952Z-0.00901
G01 X1.4708Y0.3036Z-0.00900
G01 X1.4775Y0.3117Z-0.00898
G01 X1.4835Y0.3246Z-0.00894
G01 X1.4857Y0.3388Z-0.00889
G01 X1.4847Y0.3487Z-0.00884
G01 X1.4817Y0.3584Z-0.00880
G01 X1.4746Y0.3702Z-0.00873
G01 X1.4675Y0.3774Z-0.00869
G01 X1.4680Y0.3834Z-0.00866
G01 X1.4660Y0.5414Z-0.00800
G01 X1.4647Y0.5499Z-0.00796
G01 X1.4618Y0.5568Z-0.00793
G01 X1.4568Y0.5635Z-0.00789
G01 X1.3670Y0.6533Z-0.00731
G01 X1.36700Y0.84030Z-0.00627 ;segmented line. Max segment length set to 0.187
G01 X1.36700Y1.02730Z-0.00545 ;segmented line. Max segment length set to 0.187
G01 X1.3670Y1.0370Z-0.00543
G01 X1.3664Y1.0432Z-0.00541
G01 X1.3633Y1.0519Z-0.00539
G01 X1.3579Y1.0594Z-0.00537
G01 X1.2680Y1.1502Z-0.00506
G01 X1.26761Y1.33720Z-0.00462 ;segmented line. Max segment length set to 0.187
G01 X1.26722Y1.52420Z-0.00413 ;segmented line. Max segment length set to 0.187
G01 X1.2670Y1.6288Z-0.00386
G01 X1.3576Y1.7194Z-0.00373
G01 X1.3634Y1.7273Z-0.00374
G01 X1.3663Y1.7354Z-0.00374
G01 X1.3670Y1.7416Z-0.00374
G01 X1.3666Y1.8008Z-0.00372
G01 X1.3739Y1.8079Z-0.00373
G01 X1.3792Y1.8159Z-0.00373
G01 X1.3829Y1.8248Z-0.00373
G01 X1.3848Y1.8342Z-0.00373
G01 X1.3841Y1.8486Z-0.00373
G01 X1.3792Y1.8621Z-0.00372
G01 X1.3736Y1.8704Z-0.00371
G01 X1.3632Y1.8797Z-0.00370
G01 X1.3506Y1.8858Z-0.00369
G01 X1.3408Y1.8878Z-0.00368
G01 X1.3268Y1.8871Z-0.00366
G01 X1.3172Y1.8843Z-0.00365
G01 X1.3085Y1.8795Z-0.00365
G01 X1.2981Y1.8701Z-0.00364
G01 X1.2928Y1.8621Z-0.00363
G01 X1.2892Y1.8536Z-0.00363
G01 X1.2879Y1.8482Z-0.00363
G01 X1.2870Y1.8386Z-0.00363
G01 X1.2879Y1.8294Z-0.00364
G01 X1.2909Y1.8199Z-0.00364
G01 X1.2955Y1.8115Z-0.00365
G01 X1.3036Y1.8023Z-0.00366
G01 X1.3030Y1.7962Z-0.00366
G01 X1.3030Y1.7553Z-0.00367
G01 X1.2217Y1.6739Z-0.00369
G01 X1.03470Y1.67268Z-0.00351 ;segmented line. Max segment length set to 0.187
G01 X0.84770Y1.67147Z-0.00328 ;segmented line. Max segment length set to 0.187
G01 X0.7758Y1.6710Z-0.00310
G01 X0.7663Y1.6695Z-0.00308
G00 Z0.1000
G00 X0.7790Y1.5392
G01 Z-0.00345
G01 X0.7782Y1.5474Z-0.00343
G01 X0.7757Y1.5555Z-0.00340
G01 X0.7718Y1.5629Z-0.00337
G01 X0.7664Y1.5694Z-0.00334
G01 X0.7599Y1.5748Z-0.00331
G01 X0.7525Y1.5787Z-0.00328
G01 X0.7444Y1.5812Z-0.00326
G01 X0.7360Y1.5820Z-0.00323
G01 X0.7276Y1.5812Z-0.00321
G01 X0.7195Y1.5787Z-0.00320
G01 X0.7121Y1.5748Z-0.00319
G01 X0.7056Y1.5694Z-0.00319
G01 X0.7002Y1.5629Z-0.00319
G01 X0.6963Y1.5555Z-0.00320
G01 X0.6938Y1.5474Z-0.00322
G01 X0.6930Y1.5390Z-0.00324
G01 X0.6938Y1.5306Z-0.00326
G01 X0.6963Y1.5225Z-0.00329
G01 X0.7002Y1.5151Z-0.00332
G01 X0.7056Y1.5086Z-0.00335
G01 X0.7121Y1.5032Z-0.00338
G01 X0.7195Y1.4993Z-0.00341
G01 X0.7276Y1.4968Z-0.00343
G01 X0.7360Y1.4960Z-0.00346
G01 X0.7444Y1.4968Z-0.00348
G01 X0.7525Y1.4993Z-0.00349
G01 X0.7599Y1.5032Z-0.00350
G01 X0.7664Y1.5086Z-0.00350
G01 X0.7718Y1.5151Z-0.00350
G01 X0.7757Y1.5225Z-0.00349
G01 X0.7782Y1.5306Z-0.00347
G01 X0.7790Y1.5392Z-0.00345
G00 Z0.1000
G00 X0.7740Y1.4591
G01 Z-0.00365
G01 X0.7692Y1.4663Z-0.00362
G01 X0.7633Y1.4722Z-0.00359
G01 X0.7563Y1.4769Z-0.00356
G01 X0.7485Y1.4801Z-0.00353
G01 X0.7402Y1.4818Z-0.00351
G01 X0.7318Y1.4818Z-0.00348
G01 X0.7235Y1.4801Z-0.00347
G01 X0.7157Y1.4769Z-0.00346
G01 X0.7087Y1.4722Z-0.00345
G01 X0.7028Y1.4663Z-0.00345
G01 X0.6981Y1.4593Z-0.00346
G01 X0.6949Y1.4515Z-0.00347
G01 X0.6932Y1.4432Z-0.00349
G01 X0.6932Y1.4348Z-0.00351
G01 X0.6949Y1.4265Z-0.00354
G01 X0.6981Y1.4187Z-0.00356
G01 X0.7056Y1.4086Z-0.00361
G01 X0.7154Y1.4013Z-0.00365
G01 X0.7239Y1.3977Z-0.00368
G01 X0.7360Y1.3960Z-0.00372
G01 X0.7485Y1.3979Z-0.00374
G01 X0.7596Y1.4030Z-0.00376
G01 X0.7690Y1.4114Z-0.00376
G01 X0.7741Y1.4191Z-0.00375
G01 X0.8380Y1.4200Z-0.00391
G01 X0.8934Y1.4192Z-0.00403
G01 X0.8969Y1.4129Z-0.00405
G01 X0.9028Y1.4058Z-0.00407
G01 X0.9099Y1.3999Z-0.00410
G01 X0.9180Y1.3956Z-0.00412
G01 X0.9268Y1.3929Z-0.00413
G01 X0.9360Y1.3920Z-0.00414
G01 X0.9452Y1.3929Z-0.00415
G01 X0.9519Y1.3948Z-0.00415
G01 X1.0150Y1.3317Z-0.00438
G01 X1.01553Y1.14470Z-0.00489 ;segmented line. Max segment length set to 0.187
G01 X1.0160Y0.9815Z-0.00533
G01 X1.0062Y0.9753Z-0.00534
G01 X0.9969Y0.9651Z-0.00536
G01 X0.9910Y0.9526Z-0.00540
G01 X0.9890Y0.9390Z-0.00546
G01 X0.9910Y0.9254Z-0.00552
G01 X0.9969Y0.9129Z-0.00558
G01 X1.0062Y0.9027Z-0.00563
G01 X1.0160Y0.8965Z-0.00567
G01 X1.0160Y0.7815Z-0.00618
G01 X1.0062Y0.7753Z-0.00620
G01 X0.9969Y0.7651Z-0.00623
G01 X0.9910Y0.7526Z-0.00628
G01 X0.9890Y0.7390Z-0.00633
G01 X0.9910Y0.7254Z-0.00639
G01 X0.9969Y0.7129Z-0.00646
G01 X1.0062Y0.7027Z-0.00652
G01 X1.0160Y0.6965Z-0.00656
G01 X1.01600Y0.50950Z-0.00732 ;segmented line. Max segment length set to 0.187
G01 X1.0160Y0.4815Z-0.00741
G01 X1.0059Y0.4751Z-0.00742
G01 X0.9967Y0.4648Z-0.00743
G01 X0.9910Y0.4526Z-0.00746
G01 X0.9893Y0.4440Z-0.00749
G01 X0.9890Y0.4386Z-0.00751
G01 X0.9909Y0.4257Z-0.00755
G01 X0.9945Y0.4168Z-0.00759
G01 X0.9999Y0.4089Z-0.00763
G01 X1.0096Y0.4001Z-0.00768
G01 X1.0180Y0.3956Z-0.00771
G01 X1.0272Y0.3928Z-0.00774
G01 X1.0402Y0.3922Z-0.00777
G01 X1.0493Y0.3939Z-0.00778
G01 X1.0543Y0.3957Z-0.00778
G01 X1.0621Y0.3999Z-0.00779
G01 X1.0689Y0.4055Z-0.00778
G01 X1.0726Y0.4095Z-0.00777
G01 X1.0775Y0.4168Z-0.00776
G01 X1.0809Y0.4250Z-0.00774
G01 X1.0830Y0.4388Z-0.00769
G01 X1.0810Y0.4526Z-0.00764
G01 X1.0753Y0.4648Z-0.00759
G01 X1.0661Y0.4751Z-0.00754
G01 X1.0560Y0.4815Z-0.00749
G01 X1.05600Y0.66850Z-0.00675 ;segmented line. Max segment length set to 0.187
G01 X1.0560Y0.6965Z-0.00662
G01 X1.0658Y0.7027Z-0.00661
G01 X1.0751Y0.7129Z-0.00657
G01 X1.0810Y0.7254Z-0.00652
G01 X1.0830Y0.7388Z-0.00646
G01 X1.0810Y0.7526Z-0.00639
G01 X1.0753Y0.7648Z-0.00633
G01 X1.0661Y0.7751Z-0.00627
G01 X1.0560Y0.7815Z-0.00623
G01 X1.0560Y0.8965Z-0.00570
G01 X1.0661Y0.9029Z-0.00567
G01 X1.0753Y0.9132Z-0.00563
G01 X1.0810Y0.9254Z-0.00558
G01 X1.0830Y0.9392Z-0.00551
G01 X1.0810Y0.9526Z-0.00545
G01 X1.0751Y0.9651Z-0.00540
G01 X1.0658Y0.9753Z-0.00537
G01 X1.0560Y0.9815Z-0.00535
G01 X1.05548Y1.16850Z-0.00485 ;segmented line. Max segment length set to 0.187
G01 X1.0550Y1.3401Z-0.00440
G01 X1.0542Y1.3454Z-0.00439
G01 X1.0524Y1.3498Z-0.00437
G01 X1.0493Y1.3540Z-0.00436
G01 X0.9802Y1.4231Z-0.00411
G01 X0.9821Y1.4298Z-0.00409
G01 X0.9830Y1.4392Z-0.00407
G01 X0.9821Y1.4482Z-0.00404
G01 X0.9794Y1.4570Z-0.00402
G01 X0.9751Y1.4651Z-0.00399
G01 X0.9692Y1.4722Z-0.00397
G01 X0.9621Y1.4781Z-0.00394
G01 X0.9540Y1.4824Z-0.00393
G01 X0.9452Y1.4851Z-0.00391
G01 X0.9360Y1.4860Z-0.00390
G01 X0.9268Y1.4851Z-0.00389
G01 X0.9184Y1.4826Z-0.00389
G01 X0.9099Y1.4781Z-0.00389
G01 X0.9031Y1.4725Z-0.00390
G01 X0.8971Y1.4654Z-0.00391
G01 X0.8936Y1.4592Z-0.00393
G01 X0.8379Y1.4600Z-0.00381
G01 X0.7740Y1.4591Z-0.00365
G00 Z0.1000
G00 X0.7790Y1.2392
G01 Z-0.00427
G01 X0.7782Y1.2474Z-0.00424
G01 X0.7757Y1.2555Z-0.00421
G01 X0.7718Y1.2629Z-0.00418
G01 X0.7664Y1.2694Z-0.00415
G01 X0.7599Y1.2748Z-0.00412
G01 X0.7525Y1.2787Z-0.00409
G01 X0.7444Y1.2812Z-0.00406
G01 X0.7360Y1.2820Z-0.00404
G01 X0.7276Y1.2812Z-0.00402
G01 X0.7195Y1.2787Z-0.00400
G01 X0.7121Y1.2748Z-0.00400
G01 X0.7056Y1.2694Z-0.00400
G01 X0.7002Y1.2629Z-0.00400
G01 X0.6963Y1.2555Z-0.00402
G01 X0.6938Y1.2474Z-0.00404
G01 X0.6930Y1.2390Z-0.00406
G01 X0.6938Y1.2306Z-0.00409
G01 X0.6963Y1.2225Z-0.00412
G01 X0.7002Y1.2151Z-0.00415
G01 X0.7056Y1.2086Z-0.00418
G01 X0.7121Y1.2032Z-0.00421
G01 X0.7195Y1.1993Z-0.00424
G01 X0.7276Y1.1968Z-0.00427
G01 X0.7360Y1.1960Z-0.00429
G01 X0.7444Y1.1968Z-0.00431
G01 X0.7525Y1.1993Z-0.00432
G01 X0.7599Y1.2032Z-0.00433
G01 X0.7664Y1.2086Z-0.00433
G01 X0.7718Y1.2151Z-0.00432
G01 X0.7757Y1.2225Z-0.00431
G01 X0.7782Y1.2306Z-0.00429
G01 X0.7790Y1.2392Z-0.00427
G00 Z0.1000
G00 X0.7734Y1.1179
G01 Z-0.00461
G01 X0.8384Y1.1170Z-0.00477
G01 X0.8460Y1.1187Z-0.00478
G01 X0.8523Y1.1230Z-0.00479
G01 X0.9211Y1.1945Z-0.00468
G01 X0.9318Y1.1922Z-0.00469
G01 X0.9452Y1.1929Z-0.00470
G01 X0.9543Y1.1957Z-0.00470
G01 X0.9655Y1.2024Z-0.00469
G01 X0.9723Y1.2092Z-0.00468
G01 X0.9775Y1.2168Z-0.00466
G01 X0.9810Y1.2254Z-0.00464
G01 X0.9828Y1.2344Z-0.00462
G01 X0.9828Y1.2436Z-0.00459
G01 X0.9810Y1.2526Z-0.00456
G01 X0.9775Y1.2612Z-0.00454
G01 X0.9726Y1.2685Z-0.00451
G01 X0.9658Y1.2753Z-0.00449
G01 X0.9582Y1.2805Z-0.00447
G01 X0.9496Y1.2840Z-0.00445
G01 X0.9406Y1.2858Z-0.00443
G01 X0.9314Y1.2858Z-0.00443
G01 X0.9224Y1.2840Z-0.00442
G01 X0.9138Y1.2805Z-0.00442
G01 X0.9065Y1.2756Z-0.00443
G01 X0.9025Y1.2719Z-0.00444
G01 X0.8969Y1.2651Z-0.00445
G01 X0.8927Y1.2573Z-0.00447
G01 X0.8909Y1.2523Z-0.00448
G01 X0.8890Y1.2386Z-0.00452
G01 X0.8899Y1.2298Z-0.00455
G01 X0.8922Y1.2221Z-0.00457
G01 X0.8296Y1.1571Z-0.00463
G01 X0.7746Y1.1579Z-0.00450
G01 X0.7690Y1.1666Z-0.00446
G01 X0.7596Y1.1750Z-0.00441
G01 X0.7485Y1.1801Z-0.00437
G01 X0.7360Y1.1820Z-0.00433
G01 X0.7235Y1.1801Z-0.00431
G01 X0.7124Y1.1750Z-0.00430
G01 X0.7053Y1.1691Z-0.00430
G01 X0.6981Y1.1593Z-0.00431
G01 X0.6949Y1.1515Z-0.00433
G01 X0.6932Y1.1432Z-0.00435
G01 X0.6932Y1.1348Z-0.00437
G01 X0.6949Y1.1265Z-0.00440
G01 X0.6981Y1.1187Z-0.00443
G01 X0.7028Y1.1117Z-0.00447
G01 X0.7087Y1.1058Z-0.00450
G01 X0.7157Y1.1011Z-0.00453
G01 X0.7235Y1.0979Z-0.00456
G01 X0.7318Y1.0962Z-0.00458
G01 X0.7402Y1.0962Z-0.00460
G01 X0.7485Y1.0979Z-0.00461
G01 X0.7563Y1.1011Z-0.00462
G01 X0.7633Y1.1058Z-0.00463
G01 X0.7692Y1.1117Z-0.00462
G01 X0.7734Y1.1179Z-0.00461
G00 Z0.1000
G00 X0.7741Y0.9590
G01 Z-0.00509
G01 X0.7692Y0.9663Z-0.00505
G01 X0.7633Y0.9722Z-0.00502
G01 X0.7563Y0.9769Z-0.00499
G01 X0.7485Y0.9801Z-0.00497
G01 X0.7402Y0.9818Z-0.00494
G01 X0.7318Y0.9818Z-0.00492
G01 X0.7235Y0.9801Z-0.00491
G01 X0.7157Y0.9769Z-0.00490
G01 X0.7087Y0.9722Z-0.00490
G01 X0.7028Y0.9663Z-0.00490
G01 X0.6981Y0.9593Z-0.00491
G01 X0.6949Y0.9515Z-0.00493
G01 X0.6932Y0.9432Z-0.00496
G01 X0.6932Y0.9348Z-0.00499
G01 X0.6949Y0.9265Z-0.00502
G01 X0.6981Y0.9187Z-0.00506
G01 X0.7053Y0.9089Z-0.00511
G01 X0.7121Y0.9032Z-0.00514
G01 X0.7199Y0.8991Z-0.00518
G01 X0.7318Y0.8962Z-0.00522
G01 X0.7444Y0.8968Z-0.00524
G01 X0.7563Y0.9011Z-0.00526
G01 X0.7664Y0.9086Z-0.00525
G01 X0.7741Y0.9190Z-0.00523
G01 X0.8935Y0.9190Z-0.00549
G01 X0.8994Y0.9095Z-0.00553
G01 X0.9059Y0.9029Z-0.00556
G01 X0.9138Y0.8975Z-0.00559
G01 X0.9220Y0.8941Z-0.00561
G01 X0.9314Y0.8922Z-0.00562
G01 X0.9406Y0.8922Z-0.00563
G01 X0.9496Y0.8940Z-0.00563
G01 X0.9578Y0.8974Z-0.00562
G01 X0.9661Y0.9029Z-0.00560
G01 X0.9751Y0.9129Z-0.00557
G01 X0.9796Y0.9214Z-0.00553
G01 X0.9828Y0.9344Z-0.00548
G01 X0.9821Y0.9482Z-0.00542
G01 X0.9796Y0.9566Z-0.00538
G01 X0.9773Y0.9615Z-0.00536
G01 X0.9689Y0.9725Z-0.00533
G01 X0.9621Y0.9781Z-0.00531
G01 X0.9560Y0.9815Z-0.00530
G01 X0.9560Y0.9982Z-0.00525
G01 X0.9649Y1.0038Z-0.00524
G01 X0.9712Y1.0101Z-0.00523
G01 X0.9761Y1.0176Z-0.00521
G01 X0.9796Y1.0262Z-0.00519
G01 X0.9813Y1.0345Z-0.00517
G01 X0.9813Y1.0435Z-0.00514
G01 X0.9795Y1.0522Z-0.00512
G01 X0.9763Y1.0601Z-0.00509
G01 X0.9709Y1.0682Z-0.00507
G01 X0.9613Y1.0768Z-0.00504
G01 X0.9496Y1.0824Z-0.00501
G01 X0.9405Y1.0843Z-0.00500
G01 X0.9275Y1.0837Z-0.00499
G01 X0.9186Y1.0810Z-0.00500
G01 X0.9074Y1.0744Z-0.00501
G01 X0.9008Y1.0679Z-0.00502
G01 X0.8957Y1.0601Z-0.00504
G01 X0.8915Y1.0483Z-0.00507
G01 X0.8905Y1.0390Z-0.00510
G01 X0.8914Y1.0301Z-0.00513
G01 X0.8941Y1.0212Z-0.00515
G01 X0.9006Y1.0104Z-0.00519
G01 X0.9071Y1.0038Z-0.00521
G01 X0.9160Y0.9982Z-0.00523
G01 X0.9160Y0.9815Z-0.00528
G01 X0.9099Y0.9781Z-0.00528
G01 X0.9028Y0.9722Z-0.00530
G01 X0.8969Y0.9651Z-0.00532
G01 X0.8935Y0.9590Z-0.00533
G01 X0.7741Y0.9590Z-0.00509
G00 Z0.1000
G00 X0.7496Y0.7982
G01 Z-0.00562
G01 X0.8273Y0.7221Z-0.00611
G01 X0.8322Y0.7199Z-0.00613
G01 X0.8366Y0.7191Z-0.00614
G01 X0.8935Y0.7190Z-0.00628
G01 X0.8969Y0.7129Z-0.00631
G01 X0.9028Y0.7058Z-0.00635
G01 X0.9099Y0.6999Z-0.00638
G01 X0.9160Y0.6965Z-0.00641
G01 X0.9160Y0.6798Z-0.00647
G01 X0.9068Y0.6739Z-0.00648
G01 X0.8982Y0.6643Z-0.00651
G01 X0.8938Y0.6560Z-0.00653
G01 X0.8907Y0.6435Z-0.00658
G01 X0.8908Y0.6342Z-0.00661
G01 X0.8940Y0.6216Z-0.00667
G01 X0.9006Y0.6104Z-0.00673
G01 X0.9071Y0.6038Z-0.00676
G01 X0.9146Y0.5989Z-0.00680
G01 X0.9228Y0.5955Z-0.00683
G01 X0.9315Y0.5937Z-0.00685
G01 X0.9405Y0.5937Z-0.00687
G01 X0.9492Y0.5955Z-0.00688
G01 X0.9574Y0.5989Z-0.00688
G01 X0.9649Y0.6038Z-0.00688
G01 X0.9712Y0.6101Z-0.00686
G01 X0.9761Y0.6176Z-0.00684
G01 X0.9796Y0.6262Z-0.00681
G01 X0.9815Y0.6386Z-0.00676
G01 X0.9806Y0.6479Z-0.00672
G01 X0.9779Y0.6568Z-0.00667
G01 X0.9714Y0.6676Z-0.00661
G01 X0.9649Y0.6742Z-0.00658
G01 X0.9560Y0.6798Z-0.00654
G01 X0.9560Y0.6965Z-0.00647
G01 X0.9661Y0.7029Z-0.00646
G01 X0.9753Y0.7132Z-0.00643
G01 X0.9810Y0.7254Z-0.00638
G01 X0.9830Y0.7392Z-0.00632
G01 X0.9820Y0.7486Z-0.00628
G01 X0.9776Y0.7608Z-0.00622
G01 X0.9723Y0.7688Z-0.00618
G01 X0.9658Y0.7753Z-0.00615
G01 X0.9582Y0.7805Z-0.00612
G01 X0.9496Y0.7840Z-0.00609
G01 X0.9406Y0.7858Z-0.00607
G01 X0.9310Y0.7857Z-0.00606
G01 X0.9184Y0.7826Z-0.00606
G01 X0.9096Y0.7779Z-0.00607
G01 X0.8997Y0.7688Z-0.00609
G01 X0.8935Y0.7590Z-0.00612
G01 X0.8462Y0.7590Z-0.00602
G01 X0.7773Y0.8271Z-0.00558
G01 X0.7790Y0.8392Z-0.00554
G01 X0.7773Y0.8511Z-0.00549
G01 X0.7737Y0.8596Z-0.00545
G01 X0.7664Y0.8694Z-0.00540
G01 X0.7563Y0.8769Z-0.00535
G01 X0.7448Y0.8811Z-0.00530
G01 X0.7356Y0.8820Z-0.00528
G01 X0.7235Y0.8801Z-0.00525
G01 X0.7157Y0.8769Z-0.00525
G01 X0.7087Y0.8722Z-0.00525
G01 X0.7028Y0.8663Z-0.00525
G01 X0.6981Y0.8593Z-0.00527
G01 X0.6949Y0.8515Z-0.00529
G01 X0.6932Y0.8432Z-0.00531
G01 X0.6932Y0.8348Z-0.00534
G01 X0.6949Y0.8265Z-0.00538
G01 X0.6981Y0.8187Z-0.00541
G01 X0.7028Y0.8117Z-0.00545
G01 X0.7087Y0.8058Z-0.00548
G01 X0.7157Y0.8011Z-0.00552
G01 X0.7235Y0.7979Z-0.00555
G01 X0.7318Y0.7962Z-0.00558
G01 X0.7402Y0.7962Z-0.00560
G01 X0.7496Y0.7982Z-0.00562
G00 Z0.1000
G00 X0.7495Y0.6982
G01 Z-0.00598
G01 X0.88131Y0.56556Z-0.00686 ;segmented line. Max segment length set to 0.187
G01 X0.8930Y0.5538Z-0.00692
G01 X0.8913Y0.5475Z-0.00694
G01 X0.8905Y0.5386Z-0.00697
G01 X0.8914Y0.5301Z-0.00700
G01 X0.8940Y0.5216Z-0.00703
G01 X0.8982Y0.5137Z-0.00707
G01 X0.9036Y0.5071Z-0.00710
G01 X0.9104Y0.5014Z-0.00713
G01 X0.9160Y0.4982Z-0.00716
G01 X0.9160Y0.4815Z-0.00721
G01 X0.9065Y0.4756Z-0.00721
G01 X0.8997Y0.4688Z-0.00722
G01 X0.8927Y0.4573Z-0.00725
G01 X0.8899Y0.4482Z-0.00727
G01 X0.8890Y0.4390Z-0.00730
G01 X0.8899Y0.4298Z-0.00734
G01 X0.8926Y0.4210Z-0.00737
G01 X0.8971Y0.4126Z-0.00741
G01 X0.9028Y0.4058Z-0.00744
G01 X0.9099Y0.3999Z-0.00748
G01 X0.9180Y0.3956Z-0.00751
G01 X0.9268Y0.3929Z-0.00754
G01 X0.9360Y0.3920Z-0.00756
G01 X0.9452Y0.3929Z-0.00757
G01 X0.9540Y0.3956Z-0.00758
G01 X0.9624Y0.4001Z-0.00758
G01 X0.9695Y0.4061Z-0.00758
G01 X0.9773Y0.4165Z-0.00756
G01 X0.9810Y0.4254Z-0.00754
G01 X0.9828Y0.4348Z-0.00751
G01 X0.9821Y0.4482Z-0.00746
G01 X0.9796Y0.4566Z-0.00743
G01 X0.9773Y0.4615Z-0.00740
G01 X0.9689Y0.4725Z-0.00735
G01 X0.9621Y0.4781Z-0.00732
G01 X0.9560Y0.4815Z-0.00729
G01 X0.9560Y0.4982Z-0.00724
G01 X0.9649Y0.5038Z-0.00724
G01 X0.9714Y0.5104Z-0.00723
G01 X0.9779Y0.5212Z-0.00720
G01 X0.9806Y0.5301Z-0.00718
G01 X0.9815Y0.5388Z-0.00715
G01 X0.9806Y0.5479Z-0.00712
G01 X0.9780Y0.5564Z-0.00708
G01 X0.9736Y0.5646Z-0.00705
G01 X0.9646Y0.5744Z-0.00699
G01 X0.9574Y0.5791Z-0.00696
G01 X0.9496Y0.5824Z-0.00694
G01 X0.9360Y0.5845Z-0.00690
G01 X0.9275Y0.5837Z-0.00689
G01 X0.9213Y0.5820Z-0.00688
G01 X0.78953Y0.71469Z-0.00603 ;segmented line. Max segment length set to 0.187
G01 X0.7773Y0.7270Z-0.00595
G01 X0.7790Y0.7392Z-0.00591
G01 X0.7773Y0.7511Z-0.00586
G01 X0.7737Y0.7596Z-0.00582
G01 X0.7664Y0.7694Z-0.00577
G01 X0.7563Y0.7769Z-0.00571
G01 X0.7448Y0.7811Z-0.00567
G01 X0.7356Y0.7820Z-0.00564
G01 X0.7235Y0.7801Z-0.00562
G01 X0.7157Y0.7769Z-0.00561
G01 X0.7087Y0.7722Z-0.00561
G01 X0.7028Y0.7663Z-0.00561
G01 X0.6981Y0.7593Z-0.00562
G01 X0.6949Y0.7515Z-0.00564
G01 X0.6932Y0.7432Z-0.00567
G01 X0.6932Y0.7348Z-0.00570
G01 X0.6949Y0.7265Z-0.00573
G01 X0.6981Y0.7187Z-0.00577
G01 X0.7028Y0.7117Z-0.00581
G01 X0.7087Y0.7058Z-0.00584
G01 X0.7157Y0.7011Z-0.00588
G01 X0.7235Y0.6979Z-0.00591
G01 X0.7318Y0.6962Z-0.00594
G01 X0.7402Y0.6962Z-0.00596
G01 X0.7495Y0.6982Z-0.00598
G00 Z0.1000
G00 X0.7790Y0.6392
G01 Z-0.00628
G01 X0.7782Y0.6474Z-0.00625
G01 X0.7757Y0.6555Z-0.00621
G01 X0.7718Y0.6629Z-0.00618
G01 X0.7664Y0.6694Z-0.00614
G01 X0.7599Y0.6748Z-0.00610
G01 X0.7525Y0.6787Z-0.00606
G01 X0.7444Y0.6812Z-0.00603
G01 X0.7360Y0.6820Z-0.00600
G01 X0.7276Y0.6812Z-0.00598
G01 X0.7195Y0.6787Z-0.00597
G01 X0.7121Y0.6748Z-0.00596
G01 X0.7056Y0.6694Z-0.00596
G01 X0.7002Y0.6629Z-0.00597
G01 X0.6963Y0.6555Z-0.00599
G01 X0.6938Y0.6474Z-0.00601
G01 X0.6930Y0.6390Z-0.00604
G01 X0.6938Y0.6306Z-0.00607
G01 X0.6963Y0.6225Z-0.00610
G01 X0.7002Y0.6151Z-0.00614
G01 X0.7056Y0.6086Z-0.00618
G01 X0.7121Y0.6032Z-0.00622
G01 X0.7195Y0.5993Z-0.00626
G01 X0.7276Y0.5968Z-0.00629
G01 X0.7360Y0.5960Z-0.00632
G01 X0.7444Y0.5968Z-0.00634
G01 X0.7525Y0.5993Z-0.00635
G01 X0.7599Y0.6032Z-0.00636
G01 X0.7664Y0.6086Z-0.00636
G01 X0.7718Y0.6151Z-0.00635
G01 X0.7757Y0.6225Z-0.00634
G01 X0.7782Y0.6306Z-0.00631
G01 X0.7790Y0.6392Z-0.00628
G00 Z0.1000
G00 X0.7790Y0.5392
G01 Z-0.00666
G01 X0.7782Y0.5474Z-0.00663
G01 X0.7757Y0.5555Z-0.00659
G01 X0.7718Y0.5629Z-0.00655
G01 X0.7664Y0.5694Z-0.00651
G01 X0.7599Y0.5748Z-0.00647
G01 X0.7525Y0.5787Z-0.00643
G01 X0.7444Y0.5812Z-0.00640
G01 X0.7360Y0.5820Z-0.00637
G01 X0.7276Y0.5812Z-0.00634
G01 X0.7195Y0.5787Z-0.00633
G01 X0.7121Y0.5748Z-0.00633
G01 X0.7056Y0.5694Z-0.00633
G01 X0.7002Y0.5629Z-0.00634
G01 X0.6963Y0.5555Z-0.00636
G01 X0.6938Y0.5474Z-0.00639
G01 X0.6930Y0.5390Z-0.00642
G01 X0.6938Y0.5306Z-0.00646
G01 X0.6963Y0.5225Z-0.00650
G01 X0.7002Y0.5151Z-0.00654
G01 X0.7056Y0.5086Z-0.00658
G01 X0.7121Y0.5032Z-0.00662
G01 X0.7195Y0.4993Z-0.00666
G01 X0.7276Y0.4968Z-0.00669
G01 X0.7360Y0.4960Z-0.00672
G01 X0.7444Y0.4968Z-0.00674
G01 X0.7525Y0.4993Z-0.00675
G01 X0.7599Y0.5032Z-0.00675
G01 X0.7664Y0.5086Z-0.00675
G01 X0.7718Y0.5151Z-0.00674
G01 X0.7757Y0.5225Z-0.00672
G01 X0.7782Y0.5306Z-0.00669
G01 X0.7790Y0.5392Z-0.00666
G00 Z0.1000
G00 X0.7790Y0.4392
G01 Z-0.00705
G01 X0.7782Y0.4474Z-0.00702
G01 X0.7757Y0.4555Z-0.00698
G01 X0.7718Y0.4629Z-0.00694
G01 X0.7664Y0.4694Z-0.00690
G01 X0.7599Y0.4748Z-0.00686
G01 X0.7525Y0.4787Z-0.00683
G01 X0.7444Y0.4812Z-0.00680
G01 X0.7360Y0.4820Z-0.00677
G01 X0.7276Y0.4812Z-0.00676
G01 X0.7195Y0.4787Z-0.00675
G01 X0.7121Y0.4748Z-0.00674
G01 X0.7056Y0.4694Z-0.00675
G01 X0.7002Y0.4629Z-0.00676
G01 X0.6963Y0.4555Z-0.00679
G01 X0.6938Y0.4474Z-0.00681
G01 X0.6930Y0.4390Z-0.00685
G01 X0.6938Y0.4306Z-0.00689
G01 X0.6963Y0.4225Z-0.00693
G01 X0.7002Y0.4151Z-0.00697
G01 X0.7056Y0.4086Z-0.00701
G01 X0.7121Y0.4032Z-0.00704
G01 X0.7195Y0.3993Z-0.00708
G01 X0.7276Y0.3968Z-0.00710
G01 X0.7360Y0.3960Z-0.00712
G01 X0.7444Y0.3968Z-0.00714
G01 X0.7525Y0.3993Z-0.00715
G01 X0.7599Y0.4032Z-0.00715
G01 X0.7664Y0.4086Z-0.00714
G01 X0.7718Y0.4151Z-0.00713
G01 X0.7757Y0.4225Z-0.00711
G01 X0.7782Y0.4306Z-0.00708
G01 X0.7790Y0.4392Z-0.00705
G00 Z0.1000
G00 X0.7790Y0.3392
G01 Z-0.00744
G01 X0.7782Y0.3474Z-0.00740
G01 X0.7757Y0.3555Z-0.00737
G01 X0.7718Y0.3629Z-0.00733
G01 X0.7664Y0.3694Z-0.00729
G01 X0.7599Y0.3748Z-0.00726
G01 X0.7525Y0.3787Z-0.00723
G01 X0.7444Y0.3812Z-0.00720
G01 X0.7360Y0.3820Z-0.00718
G01 X0.7276Y0.3812Z-0.00717
G01 X0.7195Y0.3787Z-0.00716
G01 X0.7121Y0.3748Z-0.00716
G01 X0.7056Y0.3694Z-0.00717
G01 X0.7002Y0.3629Z-0.00719
G01 X0.6963Y0.3555Z-0.00721
G01 X0.6938Y0.3474Z-0.00724
G01 X0.6930Y0.3390Z-0.00728
G01 X0.6938Y0.3306Z-0.00731
G01 X0.6963Y0.3225Z-0.00735
G01 X0.7002Y0.3151Z-0.00739
G01 X0.7056Y0.3086Z-0.00743
G01 X0.7121Y0.3032Z-0.00746
G01 X0.7195Y0.2993Z-0.00749
G01 X0.7276Y0.2968Z-0.00751
G01 X0.7360Y0.2960Z-0.00753
G01 X0.7444Y0.2968Z-0.00754
G01 X0.7525Y0.2993Z-0.00755
G01 X0.7599Y0.3032Z-0.00754
G01 X0.7664Y0.3086Z-0.00753
G01 X0.7718Y0.3151Z-0.00752
G01 X0.7757Y0.3225Z-0.00750
G01 X0.7782Y0.3306Z-0.00747
G01 X0.7790Y0.3392Z-0.00744
G00 Z0.1000
G00 X0.6110Y1.2410
G01 Z-0.00385
G01 X0.6110Y1.1367Z-0.00417
G01 X0.6119Y1.1304Z-0.00419
G01 X0.6140Y1.1254Z-0.00421
G01 X0.6180Y1.1200Z-0.00424
G01 X0.6937Y1.0464Z-0.00464
G01 X0.6932Y1.0352Z-0.00467
G01 X0.6949Y1.0265Z-0.00470
G01 X0.7000Y1.0154Z-0.00475
G01 X0.7059Y1.0083Z-0.00478
G01 X0.7157Y1.0011Z-0.00483
G01 X0.7272Y0.9969Z-0.00487
G01 X0.7364Y0.9960Z-0.00489
G01 X0.7485Y0.9979Z-0.00491
G01 X0.7563Y1.0011Z-0.00492
G01 X0.7633Y1.0058Z-0.00492
G01 X0.7692Y1.0117Z-0.00492
G01 X0.7741Y1.0191Z-0.00491
G01 X0.7781Y1.0302Z-0.00488
G01 X0.7790Y1.0386Z-0.00486
G01 X0.7782Y1.0474Z-0.00483
G01 X0.7759Y1.0551Z-0.00481
G01 X0.7690Y1.0666Z-0.00476
G01 X0.7633Y1.0722Z-0.00473
G01 X0.7563Y1.0769Z-0.00470
G01 X0.7485Y1.0801Z-0.00467
G01 X0.7406Y1.0817Z-0.00464
G01 X0.7322Y1.0818Z-0.00462
G01 X0.7269Y1.0810Z-0.00461
G01 X0.6590Y1.1471Z-0.00425
G01 X0.6590Y1.2311Z-0.00400
G01 X0.7248Y1.2975Z-0.00396
G01 X0.7318Y1.2962Z-0.00398
G01 X0.7398Y1.2962Z-0.00400
G01 X0.7525Y1.2993Z-0.00402
G01 X0.7636Y1.3060Z-0.00403
G01 X0.7692Y1.3117Z-0.00403
G01 X0.7729Y1.3170Z-0.00402
G01 X0.8950Y1.3161Z-0.00430
G01 X0.8997Y1.3092Z-0.00433
G01 X0.9062Y1.3027Z-0.00435
G01 X0.9138Y1.2975Z-0.00438
G01 X0.9220Y1.2941Z-0.00439
G01 X0.9310Y1.2923Z-0.00441
G01 X0.9364Y1.2920Z-0.00441
G01 X0.9452Y1.2929Z-0.00442
G01 X0.9536Y1.2954Z-0.00442
G01 X0.9618Y1.2997Z-0.00442
G01 X0.9661Y1.3029Z-0.00441
G01 X0.9723Y1.3092Z-0.00440
G01 X0.9776Y1.3172Z-0.00438
G01 X0.9810Y1.3254Z-0.00436
G01 X0.9828Y1.3344Z-0.00434
G01 X0.9828Y1.3436Z-0.00432
G01 X0.9810Y1.3526Z-0.00429
G01 X0.9751Y1.3651Z-0.00425
G01 X0.9658Y1.3753Z-0.00422
G01 X0.9540Y1.3824Z-0.00419
G01 X0.9406Y1.3858Z-0.00416
G01 X0.9268Y1.3851Z-0.00415
G01 X0.9142Y1.3806Z-0.00415
G01 X0.9031Y1.3725Z-0.00416
G01 X0.8963Y1.3641Z-0.00418
G01 X0.8380Y1.3650Z-0.00405
G01 X0.7702Y1.3650Z-0.00388
G01 X0.7661Y1.3697Z-0.00386
G01 X0.7599Y1.3748Z-0.00383
G01 X0.7485Y1.3801Z-0.00379
G01 X0.7360Y1.3820Z-0.00376
G01 X0.7235Y1.3801Z-0.00373
G01 X0.7121Y1.3748Z-0.00371
G01 X0.7028Y1.3663Z-0.00371
G01 X0.6981Y1.3593Z-0.00372
G01 X0.6949Y1.3515Z-0.00373
G01 X0.6932Y1.3432Z-0.00375
G01 X0.6933Y1.3340Z-0.00377
G01 X0.6167Y1.2565Z-0.00382
G01 X0.6126Y1.2497Z-0.00383
G01 X0.6110Y1.2410Z-0.00385
G00 Z0.1000
G00 X1.3886Y1.0810
G01 Z-0.00535
G01 X1.4834Y1.0810Z-0.00544
G01 X1.4871Y1.0821Z-0.00544
G01 X1.4899Y1.0849Z-0.00544
G01 X1.4910Y1.0890Z-0.00543
G01 X1.4905Y1.1787Z-0.00522
G01 X1.4884Y1.1819Z-0.00521
G01 X1.4842Y1.1839Z-0.00520
G01 X1.4558Y1.1840Z-0.00517
G01 X1.4541Y1.3326Z-0.00482
G01 X1.5170Y1.3931Z-0.00473
G01 X1.5307Y1.3896Z-0.00475
G01 X1.5413Y1.3896Z-0.00476
G01 X1.5550Y1.3931Z-0.00476
G01 X1.5672Y1.4004Z-0.00476
G01 X1.5744Y1.4075Z-0.00474
G01 X1.5798Y1.4156Z-0.00473
G01 X1.5835Y1.4246Z-0.00471
G01 X1.5854Y1.4345Z-0.00469
G01 X1.5848Y1.4483Z-0.00465
G01 X1.5819Y1.4580Z-0.00462
G01 X1.5771Y1.4669Z-0.00459
G01 X1.5675Y1.4774Z-0.00456
G01 X1.5550Y1.4849Z-0.00452
G01 X1.5413Y1.4884Z-0.00450
G01 X1.5307Y1.4884Z-0.00449
G01 X1.5170Y1.4849Z-0.00448
G01 X1.4541Y1.5445Z-0.00427
G01 X1.45545Y1.73150Z-0.00383 ;segmented line. Max segment length set to 0.187
G01 X1.4559Y1.7943Z-0.00382
G01 X1.4671Y1.8011Z-0.00383
G01 X1.4767Y1.8118Z-0.00383
G01 X1.4829Y1.8248Z-0.00384
G01 X1.4847Y1.8338Z-0.00383
G01 X1.4850Y1.8394Z-0.00383
G01 X1.4841Y1.8486Z-0.00383
G01 X1.4813Y1.8578Z-0.00383
G01 X1.4767Y1.8662Z-0.00382
G01 X1.4709Y1.8734Z-0.00381
G01 X1.4632Y1.8797Z-0.00380
G01 X1.4551Y1.8841Z-0.00379
G01 X1.4459Y1.8870Z-0.00378
G01 X1.4404Y1.8878Z-0.00378
G01 X1.4312Y1.8878Z-0.00377
G01 X1.4218Y1.8859Z-0.00376
G01 X1.4129Y1.8822Z-0.00375
G01 X1.4049Y1.8769Z-0.00374
G01 X1.3981Y1.8701Z-0.00374
G01 X1.3928Y1.8621Z-0.00373
G01 X1.3891Y1.8532Z-0.00373
G01 X1.3872Y1.8438Z-0.00373
G01 X1.3879Y1.8294Z-0.00374
G01 X1.3906Y1.8206Z-0.00374
G01 X1.3930Y1.8156Z-0.00375
G01 X1.3979Y1.8082Z-0.00375
G01 X1.4016Y1.8041Z-0.00376
G01 X1.4088Y1.7983Z-0.00377
G01 X1.4159Y1.7944Z-0.00378
G01 X1.41461Y1.60740Z-0.00406 ;segmented line. Max segment length set to 0.187
G01 X1.4141Y1.5342Z-0.00425
G01 X1.4157Y1.5279Z-0.00427
G01 X1.4198Y1.5220Z-0.00429
G01 X1.4894Y1.4559Z-0.00453
G01 X1.4873Y1.4487Z-0.00455
G01 X1.4863Y1.4390Z-0.00457
G01 X1.4873Y1.4293Z-0.00460
G01 X1.4894Y1.4220Z-0.00462
G01 X1.4197Y1.3550Z-0.00473
G01 X1.4165Y1.3508Z-0.00474
G01 X1.4148Y1.3466Z-0.00475
G01 X1.4140Y1.3408Z-0.00476
G01 X1.4158Y1.1840Z-0.00513
G01 X1.3878Y1.1839Z-0.00510
G01 X1.3836Y1.1819Z-0.00511
G01 X1.3812Y1.1779Z-0.00511
G01 X1.3810Y1.0886Z-0.00532
G01 X1.3831Y1.0836Z-0.00534
G01 X1.3856Y1.0818Z-0.00534
G01 X1.3886Y1.0810Z-0.00535
G00 Z0.1000
G00 X1.1768Y2.0590
G01 Z-0.00351
G01 X1.1712Y2.0679Z-0.00351
G01 X1.1649Y2.0742Z-0.00351
G01 X1.1574Y2.0791Z-0.00350
G01 X1.1492Y2.0825Z-0.00350
G01 X1.1405Y2.0843Z-0.00349
G01 X1.1315Y2.0843Z-0.00349
G01 X1.1228Y2.0825Z-0.00348
G01 X1.1146Y2.0791Z-0.00348
G01 X1.1071Y2.0742Z-0.00348
G01 X1.1008Y2.0679Z-0.00347
G01 X1.0959Y2.0604Z-0.00347
G01 X1.0925Y2.0522Z-0.00347
G01 X1.0907Y2.0435Z-0.00347
G01 X1.0907Y2.0345Z-0.00347
G01 X1.0925Y2.0258Z-0.00347
G01 X1.0959Y2.0176Z-0.00347
G01 X1.1036Y2.0071Z-0.00348
G01 X1.1111Y2.0010Z-0.00348
G01 X1.1228Y1.9955Z-0.00349
G01 X1.1360Y1.9935Z-0.00350
G01 X1.1492Y1.9955Z-0.00350
G01 X1.1609Y2.0010Z-0.00351
G01 X1.1709Y2.0098Z-0.00352
G01 X1.1768Y2.0190Z-0.00352
G01 X1.36380Y2.01976Z-0.00367 ;segmented line. Max segment length set to 0.187
G01 X1.4217Y2.0200Z-0.00372
G01 X1.4896Y1.8859Z-0.00383
G01 X1.4878Y1.8834Z-0.00383
G01 X1.4870Y1.8800Z-0.00383
G01 X1.4870Y1.7980Z-0.00385
G01 X1.4886Y1.7932Z-0.00385
G01 X1.4916Y1.7908Z-0.00385
G01 X1.4946Y1.7900Z-0.00386
G01 X1.5770Y1.7900Z-0.00394
G01 X1.5811Y1.7911Z-0.00394
G01 X1.5839Y1.7939Z-0.00395
G01 X1.5850Y1.7980Z-0.00395
G01 X1.5850Y1.8800Z-0.00392
G01 X1.5842Y1.8834Z-0.00392
G01 X1.5811Y1.8869Z-0.00392
G01 X1.5774Y1.8880Z-0.00391
G01 X1.5333Y1.8880Z-0.00387
G01 X1.4516Y2.0495Z-0.00375
G01 X1.4485Y2.0538Z-0.00374
G01 X1.4450Y2.0567Z-0.00374
G01 X1.4397Y2.0592Z-0.00373
G01 X1.4341Y2.0600Z-0.00373
G01 X1.24710Y2.05927Z-0.00355 ;segmented line. Max segment length set to 0.187
G01 X1.1768Y2.0590Z-0.00351
G00 Z0.1000
G00 Z0.1000
G00 X0Y0
M05
