(This GCode script was designed to adjust the Z height of a CNC machine according)
(to the minute variations in the surface height in order to achieve a better result in the milling/etching process)
(This script is the output of AutoLevellerAE, 0.9.5u2 Changeset: ...2d0387 @ http://autoleveller.co.uk)
(Author: James Hawthorne PhD. File creation date: 02-05-2020 18:11)
(This program and any of its output is licensed under GPLv2 and as such...)
(AutoLevellerAE comes with ABSOLUTELY NO WARRANTY; for details, see sections 11 and 12 of the GPLv2 @ http://www.gnu.org/licenses/old-licenses/gpl-2.0.html)

G90 G20 S20000 G17

M0 (Attach probe wires and clips that need attaching)
(Initialize probe routine)
G0 Z1.5 (Move clear of the board first)
G1 X0.093 Y0.2052 F35 (Move to bottom left corner)
G0 Z0.0787 (Quick move to probe clearance height)
G31 Z-0.0625 F5 (Probe to a maximum of the specified probe height at the specified feed rate)
G92 Z0 (Touch off Z to 0 once contact is made)
G0 Z0.0787 (Move Z to above the contact point)
G31 Z-0.0625 F2.5 (Repeat at a more accurate slower rate)
G92 Z0
G0 Z0.0787
M0 (Detach any clips used for probing)

S16500
G20
G90
G94
F3.00
G00 Z0.1000
M03
G4 P1
G00 X0.7240Y0.2837
G01 Z-0.00756
G01 X0.7143Y0.2867Z-0.00753
G01 X0.7055Y0.2914Z-0.00750
G01 X0.6993Y0.2959Z-0.00747
G01 X0.6922Y0.3031Z-0.00743
G01 X0.6866Y0.3114Z-0.00738
G01 X0.6833Y0.3183Z-0.00735
G01 X0.6805Y0.3280Z-0.00730
G01 X0.6794Y0.3390Z-0.00725
G01 X0.6803Y0.3490Z-0.00721
G01 X0.6818Y0.3554Z-0.00718
G01 X0.6841Y0.3616Z-0.00716
G01 X0.6884Y0.3695Z-0.00714
G01 X0.6967Y0.3798Z-0.00711
G01 X0.7037Y0.3855Z-0.00710
G01 X0.7095Y0.3890Z-0.00710
G01 X0.6993Y0.3959Z-0.00705
G01 X0.6929Y0.4023Z-0.00701
G01 X0.6889Y0.4076Z-0.00697
G01 X0.6856Y0.4133Z-0.00694
G01 X0.6822Y0.4216Z-0.00690
G01 X0.6796Y0.4345Z-0.00684
G01 X0.6796Y0.4435Z-0.00680
G01 X0.6805Y0.4500Z-0.00677
G01 X0.6822Y0.4564Z-0.00675
G01 X0.6861Y0.4657Z-0.00672
G01 X0.6916Y0.4741Z-0.00670
G01 X0.6960Y0.4790Z-0.00669
G01 X0.7037Y0.4855Z-0.00668
G01 X0.7095Y0.4890Z-0.00668
G01 X0.7037Y0.4925Z-0.00665
G01 X0.6960Y0.4990Z-0.00660
G01 X0.6895Y0.5067Z-0.00655
G01 X0.6856Y0.5133Z-0.00651
G01 X0.6818Y0.5226Z-0.00646
G01 X0.6798Y0.5324Z-0.00641
G01 X0.6794Y0.5401Z-0.00638
G01 X0.6805Y0.5500Z-0.00634
G01 X0.6841Y0.5616Z-0.00630
G01 X0.6916Y0.5741Z-0.00627
G01 X0.7001Y0.5828Z-0.00626
G01 X0.7095Y0.5890Z-0.00626
G01 X0.6993Y0.5959Z-0.00621
G01 X0.6929Y0.6023Z-0.00617
G01 X0.6889Y0.6076Z-0.00614
G01 X0.6833Y0.6183Z-0.00608
G01 X0.6807Y0.6269Z-0.00604
G01 X0.6797Y0.6335Z-0.00602
G01 X0.6794Y0.6401Z-0.00599
G01 X0.6805Y0.6500Z-0.00596
G01 X0.6822Y0.6564Z-0.00594
G01 X0.6861Y0.6657Z-0.00592
G01 X0.6916Y0.6741Z-0.00591
G01 X0.6960Y0.6790Z-0.00590
G01 X0.7037Y0.6855Z-0.00590
G01 X0.7095Y0.6890Z-0.00590
G01 X0.7037Y0.6925Z-0.00588
G01 X0.6960Y0.6990Z-0.00583
G01 X0.6895Y0.7067Z-0.00579
G01 X0.6856Y0.7133Z-0.00575
G01 X0.6818Y0.7226Z-0.00571
G01 X0.6798Y0.7324Z-0.00567
G01 X0.6794Y0.7401Z-0.00564
G01 X0.6805Y0.7500Z-0.00561
G01 X0.6841Y0.7616Z-0.00558
G01 X0.6916Y0.7741Z-0.00555
G01 X0.7001Y0.7828Z-0.00554
G01 X0.7095Y0.7890Z-0.00555
G01 X0.7037Y0.7925Z-0.00552
G01 X0.6960Y0.7990Z-0.00548
G01 X0.6916Y0.8039Z-0.00545
G01 X0.6861Y0.8123Z-0.00540
G01 X0.6822Y0.8216Z-0.00536
G01 X0.6805Y0.8280Z-0.00533
G01 X0.6796Y0.8345Z-0.00531
G01 X0.6796Y0.8435Z-0.00528
G01 X0.6822Y0.8564Z-0.00524
G01 X0.6856Y0.8647Z-0.00522
G01 X0.6889Y0.8704Z-0.00521
G01 X0.6929Y0.8757Z-0.00520
G01 X0.6993Y0.8821Z-0.00519
G01 X0.7095Y0.8890Z-0.00519
G01 X0.7037Y0.8925Z-0.00516
G01 X0.6960Y0.8990Z-0.00512
G01 X0.6916Y0.9039Z-0.00509
G01 X0.6866Y0.9114Z-0.00506
G01 X0.6816Y0.9236Z-0.00500
G01 X0.6798Y0.9324Z-0.00497
G01 X0.6794Y0.9401Z-0.00494
G01 X0.6803Y0.9490Z-0.00491
G01 X0.6818Y0.9554Z-0.00489
G01 X0.6841Y0.9616Z-0.00487
G01 X0.6884Y0.9695Z-0.00486
G01 X0.6967Y0.9798Z-0.00485
G01 X0.7037Y0.9855Z-0.00485
G01 X0.7095Y0.9890Z-0.00485
G01 X0.7037Y0.9925Z-0.00483
G01 X0.6960Y0.9990Z-0.00479
G01 X0.6916Y1.0039Z-0.00476
G01 X0.6866Y1.0114Z-0.00473
G01 X0.6833Y1.0183Z-0.00470
G01 X0.6807Y1.0269Z-0.00467
G01 X0.6795Y1.0412Z-0.00462
G01 X0.6063Y1.1128Z-0.00423
G01 X0.6003Y1.1226Z-0.00419
G01 X0.5982Y1.1292Z-0.00417
G01 X0.5974Y1.1354Z-0.00414
G01 X0.5974Y1.2415Z-0.00382
G01 X0.5981Y1.2483Z-0.00380
G01 X0.6003Y1.2554Z-0.00378
G01 X0.6036Y1.2617Z-0.00377
G01 X0.6079Y1.2671Z-0.00377
G01 X0.6794Y1.3393Z-0.00373
G01 X0.6803Y1.3490Z-0.00370
G01 X0.6818Y1.3554Z-0.00369
G01 X0.6841Y1.3616Z-0.00368
G01 X0.6884Y1.3695Z-0.00367
G01 X0.6967Y1.3798Z-0.00366
G01 X0.7037Y1.3855Z-0.00367
G01 X0.7095Y1.3890Z-0.00367
G01 X0.7037Y1.3925Z-0.00365
G01 X0.6967Y1.3982Z-0.00361
G01 X0.6884Y1.4085Z-0.00357
G01 X0.6841Y1.4164Z-0.00354
G01 X0.6818Y1.4226Z-0.00351
G01 X0.6803Y1.4290Z-0.00349
G01 X0.6794Y1.4390Z-0.00347
G01 X0.6803Y1.4490Z-0.00344
G01 X0.6818Y1.4554Z-0.00343
G01 X0.6841Y1.4616Z-0.00342
G01 X0.6884Y1.4695Z-0.00341
G01 X0.6967Y1.4798Z-0.00340
G01 X0.7037Y1.4855Z-0.00340
G01 X0.7095Y1.4890Z-0.00341
G01 X0.7001Y1.4952Z-0.00337
G01 X0.6916Y1.5039Z-0.00333
G01 X0.6841Y1.5164Z-0.00328
G01 X0.6805Y1.5280Z-0.00324
G01 X0.6794Y1.5379Z-0.00321
G01 X0.6798Y1.5456Z-0.00319
G01 X0.6818Y1.5554Z-0.00317
G01 X0.6856Y1.5647Z-0.00315
G01 X0.6895Y1.5713Z-0.00315
G01 X0.6960Y1.5790Z-0.00314
G01 X0.7037Y1.5855Z-0.00314
G01 X0.7095Y1.5890Z-0.00315
G01 X0.7037Y1.5925Z-0.00313
G01 X0.6960Y1.5990Z-0.00309
G01 X0.6916Y1.6039Z-0.00307
G01 X0.6861Y1.6123Z-0.00303
G01 X0.6822Y1.6216Z-0.00300
G01 X0.6805Y1.6280Z-0.00298
G01 X0.6794Y1.6379Z-0.00295
G01 X0.6797Y1.6445Z-0.00293
G01 X0.6822Y1.6564Z-0.00291
G01 X0.6856Y1.6647Z-0.00289
G01 X0.6889Y1.6704Z-0.00289
G01 X0.6929Y1.6757Z-0.00288
G01 X0.6993Y1.6821Z-0.00288
G01 X0.7095Y1.6890Z-0.00289
G01 X0.7020Y1.6938Z-0.00286
G01 X0.6548Y1.6934Z-0.00274
G01 X0.5806Y1.6200Z-0.00275
G01 X0.58060Y1.43300Z-0.00323 ;segmented line. Max segment length set to 0.187
G01 X0.58060Y1.24600Z-0.00376 ;segmented line. Max segment length set to 0.187
G01 X0.58060Y1.05900Z-0.00434 ;segmented line. Max segment length set to 0.187
G01 X0.58060Y0.87200Z-0.00494 ;segmented line. Max segment length set to 0.187
G01 X0.58060Y0.68500Z-0.00556 ;segmented line. Max segment length set to 0.187
G01 X0.58060Y0.49800Z-0.00630 ;segmented line. Max segment length set to 0.187
G01 X0.5806Y0.3559Z-0.00698
G01 X0.6537Y0.2828Z-0.00745
G01 X0.7240Y0.2837Z-0.00756
G00 Z0.1000
G00 X0.9674Y0.5890
G01 Z-0.00694
G01 X0.9778Y0.5808Z-0.00700
G01 X0.9851Y0.5718Z-0.00704
G01 X0.9906Y0.5616Z-0.00709
G01 X0.9941Y0.5495Z-0.00714
G01 X0.9951Y0.5401Z-0.00717
G01 X0.9948Y0.5332Z-0.00720
G01 X0.9928Y0.5229Z-0.00723
G01 X0.9906Y0.5164Z-0.00724
G01 X0.9876Y0.5102Z-0.00726
G01 X0.9817Y0.5015Z-0.00728
G01 X0.9770Y0.4965Z-0.00728
G01 X0.9696Y0.4904Z-0.00729
G01 X0.9696Y0.4894Z-0.00729
G01 X0.9789Y0.4819Z-0.00734
G01 X0.9860Y0.4732Z-0.00738
G01 X0.9931Y0.4819Z-0.00737
G01 X1.0024Y0.4894Z-0.00736
G01 X1.00240Y0.67640Z-0.00663 ;segmented line. Max segment length set to 0.187
G01 X1.0024Y0.6886Z-0.00657
G01 X0.9931Y0.6961Z-0.00653
G01 X0.9860Y0.7048Z-0.00648
G01 X0.9789Y0.6961Z-0.00650
G01 X0.9696Y0.6886Z-0.00652
G01 X0.9696Y0.6876Z-0.00653
G01 X0.9770Y0.6815Z-0.00656
G01 X0.9817Y0.6765Z-0.00659
G01 X0.9857Y0.6709Z-0.00662
G01 X0.9906Y0.6616Z-0.00667
G01 X0.9928Y0.6551Z-0.00670
G01 X0.9948Y0.6448Z-0.00675
G01 X0.9951Y0.6379Z-0.00678
G01 X0.9941Y0.6285Z-0.00682
G01 X0.9906Y0.6164Z-0.00687
G01 X0.9851Y0.6062Z-0.00690
G01 X0.9778Y0.5972Z-0.00693
G01 X0.9674Y0.5890Z-0.00694
G00 Z0.1000
G00 X0.9860Y0.7732
G01 Z-0.00618
G01 X0.9931Y0.7819Z-0.00615
G01 X1.0024Y0.7894Z-0.00613
G01 X1.0024Y0.8886Z-0.00569
G01 X0.9931Y0.8961Z-0.00565
G01 X0.9860Y0.9048Z-0.00561
G01 X0.9781Y0.8954Z-0.00564
G01 X0.9655Y0.8861Z-0.00567
G01 X0.9536Y0.8810Z-0.00569
G01 X0.9409Y0.8786Z-0.00569
G01 X0.9311Y0.8786Z-0.00568
G01 X0.9242Y0.8796Z-0.00567
G01 X0.9174Y0.8813Z-0.00566
G01 X0.9084Y0.8851Z-0.00563
G01 X0.8968Y0.8928Z-0.00559
G01 X0.8898Y0.8998Z-0.00556
G01 X0.8856Y0.9054Z-0.00554
G01 X0.7815Y0.9054Z-0.00530
G01 X0.7727Y0.8959Z-0.00532
G01 X0.7625Y0.8890Z-0.00532
G01 X0.7683Y0.8855Z-0.00534
G01 X0.7760Y0.8790Z-0.00539
G01 X0.7804Y0.8741Z-0.00541
G01 X0.7859Y0.8657Z-0.00546
G01 X0.7898Y0.8564Z-0.00550
G01 X0.7915Y0.8500Z-0.00553
G01 X0.7926Y0.8395Z-0.00557
G01 X0.7921Y0.8316Z-0.00560
G01 X0.8518Y0.7726Z-0.00598
G01 X0.8856Y0.7726Z-0.00606
G01 X0.8939Y0.7826Z-0.00603
G01 X0.9015Y0.7888Z-0.00601
G01 X0.9074Y0.7924Z-0.00601
G01 X0.9194Y0.7973Z-0.00600
G01 X0.9290Y0.7992Z-0.00600
G01 X0.9360Y0.7996Z-0.00601
G01 X0.9430Y0.7992Z-0.00602
G01 X0.9526Y0.7973Z-0.00604
G01 X0.9646Y0.7924Z-0.00607
G01 X0.9752Y0.7852Z-0.00612
G01 X0.9822Y0.7782Z-0.00615
G01 X0.9860Y0.7732Z-0.00618
G00 Z0.1000
G00 X0.7925Y0.7367
G01 Z-0.00596
G01 X0.7920Y0.7314Z-0.00598
G01 X0.8773Y0.6456Z-0.00654
G01 X0.8794Y0.6562Z-0.00651
G01 X0.8844Y0.6678Z-0.00647
G01 X0.8910Y0.6773Z-0.00644
G01 X0.9024Y0.6876Z-0.00642
G01 X0.9024Y0.6886Z-0.00642
G01 X0.8931Y0.6961Z-0.00637
G01 X0.8856Y0.7054Z-0.00632
G01 X0.8369Y0.7054Z-0.00620
G01 X0.8314Y0.7060Z-0.00618
G01 X0.8251Y0.7080Z-0.00616
G01 X0.8159Y0.7137Z-0.00611
G01 X0.7925Y0.7367Z-0.00596
G00 Z0.1000
G00 X0.7625Y0.9890
G01 Z-0.00497
G01 X0.7727Y0.9821Z-0.00501
G01 X0.7815Y0.9726Z-0.00506
G01 X0.8856Y0.9726Z-0.00529
G01 X0.8924Y0.9811Z-0.00527
G01 X0.9024Y0.9894Z-0.00525
G01 X0.9024Y0.9904Z-0.00525
G01 X0.8942Y0.9972Z-0.00522
G01 X0.8875Y1.0053Z-0.00519
G01 X0.8834Y1.0121Z-0.00517
G01 X0.8794Y1.0218Z-0.00514
G01 X0.8773Y1.0322Z-0.00511
G01 X0.8769Y1.0401Z-0.00508
G01 X0.8780Y1.0505Z-0.00506
G01 X0.8814Y1.0616Z-0.00503
G01 X0.8844Y1.0678Z-0.00501
G01 X0.8903Y1.0765Z-0.00499
G01 X0.8950Y1.0815Z-0.00498
G01 X0.9032Y1.0881Z-0.00497
G01 X0.9091Y1.0916Z-0.00496
G01 X0.9188Y1.0956Z-0.00495
G01 X0.9255Y1.0971Z-0.00496
G01 X0.9360Y1.0981Z-0.00496
G01 X0.9486Y1.0967Z-0.00497
G01 X0.9576Y1.0940Z-0.00499
G01 X0.9639Y1.0911Z-0.00500
G01 X0.9697Y1.0875Z-0.00501
G01 X0.9770Y1.0815Z-0.00503
G01 X0.9857Y1.0709Z-0.00507
G01 X0.9906Y1.0616Z-0.00510
G01 X0.9940Y1.0505Z-0.00513
G01 X0.9951Y1.0395Z-0.00516
G01 X0.9940Y1.0275Z-0.00519
G01 X0.9906Y1.0164Z-0.00522
G01 X0.9851Y1.0062Z-0.00525
G01 X0.9785Y0.9980Z-0.00526
G01 X0.9696Y0.9904Z-0.00528
G01 X0.9696Y0.9894Z-0.00528
G01 X0.9789Y0.9819Z-0.00531
G01 X0.9860Y0.9732Z-0.00534
G01 X0.9931Y0.9819Z-0.00532
G01 X1.0023Y0.9894Z-0.00530
G01 X1.00180Y1.17640Z-0.00479 ;segmented line. Max segment length set to 0.187
G01 X1.0014Y1.3260Z-0.00438
G01 X0.9961Y1.3314Z-0.00436
G01 X0.9924Y1.3168Z-0.00440
G01 X0.9870Y1.3062Z-0.00442
G01 X0.9789Y1.2961Z-0.00444
G01 X0.9702Y1.2890Z-0.00445
G01 X0.9789Y1.2819Z-0.00448
G01 X0.9864Y1.2727Z-0.00451
G01 X0.9920Y1.2622Z-0.00455
G01 X0.9954Y1.2508Z-0.00458
G01 X0.9966Y1.2395Z-0.00461
G01 X0.9954Y1.2272Z-0.00465
G01 X0.9920Y1.2158Z-0.00468
G01 X0.9864Y1.2053Z-0.00470
G01 X0.9822Y1.1998Z-0.00471
G01 X0.9744Y1.1922Z-0.00473
G01 X0.9688Y1.1880Z-0.00473
G01 X0.9592Y1.1830Z-0.00474
G01 X0.9526Y1.1807Z-0.00474
G01 X0.9419Y1.1787Z-0.00474
G01 X0.9349Y1.1784Z-0.00473
G01 X0.9254Y1.1794Z-0.00472
G01 X0.8617Y1.1132Z-0.00484
G01 X0.8534Y1.1072Z-0.00483
G01 X0.8462Y1.1044Z-0.00483
G01 X0.8386Y1.1034Z-0.00481
G01 X0.7806Y1.1042Z-0.00467
G01 X0.7719Y1.0952Z-0.00468
G01 X0.7625Y1.0890Z-0.00467
G01 X0.7683Y1.0855Z-0.00470
G01 X0.7753Y1.0798Z-0.00473
G01 X0.7836Y1.0695Z-0.00478
G01 X0.7879Y1.0616Z-0.00481
G01 X0.7902Y1.0554Z-0.00484
G01 X0.7917Y1.0490Z-0.00486
G01 X0.7926Y1.0395Z-0.00489
G01 X0.7922Y1.0324Z-0.00491
G01 X0.7904Y1.0236Z-0.00493
G01 X0.7854Y1.0114Z-0.00496
G01 X0.7804Y1.0039Z-0.00497
G01 X0.7760Y0.9990Z-0.00497
G01 X0.7683Y0.9925Z-0.00497
G01 X0.7625Y0.9890Z-0.00497
G00 Z0.1000
G00 X0.6798Y1.1458
G01 Z-0.00431
G01 X0.6833Y1.1597Z-0.00427
G01 X0.6889Y1.1704Z-0.00426
G01 X0.6929Y1.1757Z-0.00425
G01 X0.6993Y1.1821Z-0.00425
G01 X0.7095Y1.1890Z-0.00425
G01 X0.6993Y1.1959Z-0.00420
G01 X0.6929Y1.2023Z-0.00417
G01 X0.6889Y1.2076Z-0.00414
G01 X0.6833Y1.2183Z-0.00410
G01 X0.6798Y1.2328Z-0.00405
G01 X0.6726Y1.2255Z-0.00405
G01 X0.6726Y1.1529Z-0.00427
G01 X0.6798Y1.1458Z-0.00431
G00 Z0.1000
G00 X0.7625Y1.1890
G01 Z-0.00438
G01 X0.7727Y1.1821Z-0.00442
G01 X0.7824Y1.1714Z-0.00448
G01 X0.8239Y1.1708Z-0.00458
G01 X0.8769Y1.2258Z-0.00455
G01 X0.8756Y1.2341Z-0.00452
G01 X0.8757Y1.2449Z-0.00449
G01 X0.8777Y1.2556Z-0.00446
G01 X0.8800Y1.2622Z-0.00445
G01 X0.8831Y1.2685Z-0.00443
G01 X0.8892Y1.2774Z-0.00441
G01 X0.8939Y1.2826Z-0.00440
G01 X0.9018Y1.2890Z-0.00439
G01 X0.8931Y1.2961Z-0.00436
G01 X0.8876Y1.3026Z-0.00434
G01 X0.7800Y1.3034Z-0.00408
G01 X0.7719Y1.2952Z-0.00408
G01 X0.7625Y1.2890Z-0.00408
G01 X0.7683Y1.2855Z-0.00410
G01 X0.7760Y1.2790Z-0.00414
G01 X0.7825Y1.2713Z-0.00418
G01 X0.7864Y1.2647Z-0.00421
G01 X0.7902Y1.2554Z-0.00425
G01 X0.7922Y1.2456Z-0.00428
G01 X0.7926Y1.2385Z-0.00430
G01 X0.7917Y1.2290Z-0.00433
G01 X0.7883Y1.2173Z-0.00436
G01 X0.7825Y1.2067Z-0.00437
G01 X0.7727Y1.1959Z-0.00438
G01 X0.7625Y1.1890Z-0.00438
G00 Z0.1000
G00 X0.9018Y1.3890
G01 Z-0.00412
G01 X0.8931Y1.3961Z-0.00409
G01 X0.8854Y1.4057Z-0.00406
G01 X0.8380Y1.4064Z-0.00395
G01 X0.7817Y1.4056Z-0.00381
G01 X0.7727Y1.3959Z-0.00381
G01 X0.7625Y1.3890Z-0.00380
G01 X0.7711Y1.3834Z-0.00384
G01 X0.7764Y1.3786Z-0.00386
G01 X0.8894Y1.3778Z-0.00413
G01 X0.8939Y1.3826Z-0.00413
G01 X0.9018Y1.3890Z-0.00412
G00 Z0.1000
G00 X0.7625Y1.5890
G01 Z-0.00328
G01 X0.7727Y1.5821Z-0.00332
G01 X0.7825Y1.5713Z-0.00338
G01 X0.7883Y1.5607Z-0.00342
G01 X0.7917Y1.5490Z-0.00346
G01 X0.7926Y1.5395Z-0.00349
G01 X0.7922Y1.5324Z-0.00350
G01 X0.7902Y1.5226Z-0.00352
G01 X0.7864Y1.5133Z-0.00354
G01 X0.7825Y1.5067Z-0.00355
G01 X0.7760Y1.4990Z-0.00355
G01 X0.7683Y1.4925Z-0.00355
G01 X0.7625Y1.4890Z-0.00354
G01 X0.7719Y1.4828Z-0.00358
G01 X0.7813Y1.4728Z-0.00363
G01 X0.8378Y1.4736Z-0.00377
G01 X0.8858Y1.4729Z-0.00388
G01 X0.8931Y1.4819Z-0.00387
G01 X0.9018Y1.4890Z-0.00386
G01 X0.8939Y1.4954Z-0.00383
G01 X0.8892Y1.5006Z-0.00381
G01 X0.8850Y1.5062Z-0.00379
G01 X0.8804Y1.5148Z-0.00377
G01 X0.8764Y1.5282Z-0.00372
G01 X0.8754Y1.5379Z-0.00370
G01 X0.8757Y1.5449Z-0.00368
G01 X0.8768Y1.5519Z-0.00366
G01 X0.8796Y1.5612Z-0.00365
G01 X0.8862Y1.5735Z-0.00362
G01 X0.8924Y1.5811Z-0.00361
G01 X0.8976Y1.5858Z-0.00360
G01 X0.9032Y1.5900Z-0.00359
G01 X0.9113Y1.5943Z-0.00359
G01 X0.7700Y1.5938Z-0.00329
G01 X0.7625Y1.5890Z-0.00328
G00 Z0.1000
G00 X0.4894Y1.6392
G01 Z-0.00247
G01 X0.4903Y1.6479Z-0.00245
G01 X0.4925Y1.6555Z-0.00243
G01 X0.4965Y1.6634Z-0.00242
G01 X0.5006Y1.6689Z-0.00242
G01 X0.6039Y1.7714Z-0.00264
G01 X0.6109Y1.7770Z-0.00266
G01 X0.6218Y1.7823Z-0.00269
G01 X0.6318Y1.7844Z-0.00271
G01 X0.7020Y1.7842Z-0.00287
G01 X0.7093Y1.7889Z-0.00289
G01 X0.7153Y1.7917Z-0.00291
G01 X0.7239Y1.7943Z-0.00293
G01 X0.7315Y1.7954Z-0.00295
G01 X0.7415Y1.7953Z-0.00297
G01 X0.7514Y1.7934Z-0.00299
G01 X0.7586Y1.7909Z-0.00301
G01 X0.7674Y1.7861Z-0.00303
G01 X0.7753Y1.7798Z-0.00304
G01 X0.7804Y1.7741Z-0.00305
G01 X0.7859Y1.7657Z-0.00306
G01 X0.7898Y1.7564Z-0.00306
G01 X0.7917Y1.7490Z-0.00306
G01 X0.7926Y1.7395Z-0.00306
G01 X0.7922Y1.7324Z-0.00306
G01 X0.7904Y1.7236Z-0.00305
G01 X0.7859Y1.7123Z-0.00303
G01 X0.7798Y1.7031Z-0.00303
G01 X0.7719Y1.6952Z-0.00303
G01 X0.7625Y1.6890Z-0.00302
G01 X0.7700Y1.6842Z-0.00305
G01 X0.95699Y1.68558Z-0.00340 ;segmented line. Max segment length set to 0.187
G01 X1.14398Y1.68697Z-0.00358 ;segmented line. Max segment length set to 0.187
G01 X1.2160Y1.6875Z-0.00365
G01 X1.2894Y1.7609Z-0.00366
G01 X1.2894Y1.7972Z-0.00365
G01 X1.2813Y1.8086Z-0.00364
G01 X1.2764Y1.8198Z-0.00363
G01 X1.2737Y1.8329Z-0.00362
G01 X1.2736Y1.8441Z-0.00362
G01 X1.2761Y1.8572Z-0.00362
G01 X1.2808Y1.8685Z-0.00362
G01 X1.2876Y1.8787Z-0.00362
G01 X1.2963Y1.8874Z-0.00363
G01 X1.3056Y1.8937Z-0.00364
G01 X1.3130Y1.8972Z-0.00365
G01 X1.3238Y1.9004Z-0.00366
G01 X1.3360Y1.9016Z-0.00367
G01 X1.3492Y1.9002Z-0.00368
G01 X1.3646Y1.8947Z-0.00370
G01 X1.3757Y1.8874Z-0.00371
G01 X1.3860Y1.8766Z-0.00372
G01 X1.3925Y1.8840Z-0.00373
G01 X1.4021Y1.8916Z-0.00374
G01 X1.4120Y1.8968Z-0.00375
G01 X1.4248Y1.9006Z-0.00376
G01 X1.4360Y1.9016Z-0.00377
G01 X1.4482Y1.9004Z-0.00378
G01 X1.4600Y1.8968Z-0.00379
G01 X1.4722Y1.8900Z-0.00381
G01 X1.4134Y2.0063Z-0.00372
G01 X1.22640Y2.00565Z-0.00355 ;segmented line. Max segment length set to 0.187
G01 X1.1847Y2.0055Z-0.00353
G01 X1.1778Y1.9972Z-0.00352
G01 X1.1688Y1.9899Z-0.00352
G01 X1.1586Y1.9844Z-0.00351
G01 X1.1486Y1.9813Z-0.00351
G01 X1.1360Y1.9799Z-0.00350
G01 X1.1255Y1.9809Z-0.00349
G01 X1.1144Y1.9840Z-0.00348
G01 X1.1072Y1.9874Z-0.00348
G01 X1.0985Y1.9933Z-0.00347
G01 X1.0910Y2.0007Z-0.00347
G01 X1.0863Y2.0071Z-0.00347
G01 X1.0818Y2.0154Z-0.00346
G01 X1.0792Y2.0229Z-0.00346
G01 X1.0772Y2.0332Z-0.00346
G01 X1.0769Y2.0401Z-0.00346
G01 X1.0779Y2.0495Z-0.00346
G01 X1.0798Y2.0572Z-0.00346
G01 X1.0839Y2.0669Z-0.00346
G01 X1.0875Y2.0727Z-0.00347
G01 X1.0942Y2.0808Z-0.00347
G01 X1.1023Y2.0875Z-0.00347
G01 X1.1081Y2.0911Z-0.00348
G01 X1.1144Y2.0940Z-0.00348
G01 X1.1234Y2.0967Z-0.00348
G01 X1.1313Y2.0979Z-0.00349
G01 X1.1418Y2.0978Z-0.00349
G01 X1.1521Y2.0958Z-0.00350
G01 X1.1586Y2.0936Z-0.00350
G01 X1.1679Y2.0887Z-0.00351
G01 X1.1735Y2.0847Z-0.00351
G01 X1.1785Y2.0800Z-0.00351
G01 X1.1845Y2.0727Z-0.00352
G01 X1.37150Y2.07337Z-0.00366 ;segmented line. Max segment length set to 0.187
G01 X1.4342Y2.0736Z-0.00372
G01 X1.4410Y2.0729Z-0.00373
G01 X1.4473Y2.0709Z-0.00374
G01 X1.4567Y2.0648Z-0.00375
G01 X1.4636Y2.0559Z-0.00376
G01 X1.5417Y1.9016Z-0.00387
G01 X1.5802Y1.9014Z-0.00391
G01 X1.5881Y1.8985Z-0.00392
G01 X1.5943Y1.8929Z-0.00393
G01 X1.5973Y1.8873Z-0.00393
G01 X1.5986Y1.8811Z-0.00394
G01 X1.5986Y1.7969Z-0.00396
G01 X1.5965Y1.7888Z-0.00396
G01 X1.5915Y1.7820Z-0.00396
G01 X1.5843Y1.7777Z-0.00395
G01 X1.5781Y1.7764Z-0.00394
G01 X1.4939Y1.7764Z-0.00386
G01 X1.4877Y1.7777Z-0.00385
G01 X1.4821Y1.7807Z-0.00385
G01 X1.4777Y1.7851Z-0.00384
G01 X1.4750Y1.7900Z-0.00384
G01 X1.4694Y1.7861Z-0.00383
G01 X1.46805Y1.59910Z-0.00414 ;segmented line. Max segment length set to 0.187
G01 X1.4677Y1.5503Z-0.00426
G01 X1.5205Y1.5003Z-0.00445
G01 X1.5349Y1.5022Z-0.00446
G01 X1.5483Y1.5010Z-0.00447
G01 X1.5554Y1.4992Z-0.00449
G01 X1.5649Y1.4953Z-0.00451
G01 X1.5761Y1.4879Z-0.00454
G01 X1.5855Y1.4783Z-0.00457
G01 X1.5913Y1.4697Z-0.00460
G01 X1.5940Y1.4642Z-0.00462
G01 X1.5980Y1.4513Z-0.00465
G01 X1.5992Y1.4385Z-0.00469
G01 X1.5978Y1.4256Z-0.00472
G01 X1.5962Y1.4196Z-0.00473
G01 X1.5923Y1.4101Z-0.00476
G01 X1.5849Y1.3989Z-0.00478
G01 X1.5761Y1.3901Z-0.00479
G01 X1.5649Y1.3827Z-0.00480
G01 X1.5554Y1.3788Z-0.00480
G01 X1.5483Y1.3770Z-0.00480
G01 X1.5349Y1.3758Z-0.00479
G01 X1.5206Y1.3777Z-0.00477
G01 X1.4678Y1.3269Z-0.00485
G01 X1.4693Y1.1976Z-0.00515
G01 X1.4841Y1.1976Z-0.00517
G01 X1.4890Y1.1967Z-0.00518
G01 X1.4807Y1.2083Z-0.00514
G01 X1.4755Y1.2206Z-0.00511
G01 X1.4731Y1.2328Z-0.00508
G01 X1.4732Y1.2463Z-0.00504
G01 X1.4758Y1.2584Z-0.00502
G01 X1.4780Y1.2642Z-0.00501
G01 X1.4828Y1.2732Z-0.00499
G01 X1.4913Y1.2837Z-0.00497
G01 X1.5009Y1.2916Z-0.00496
G01 X1.5118Y1.2974Z-0.00496
G01 X1.5237Y1.3010Z-0.00496
G01 X1.5360Y1.3023Z-0.00497
G01 X1.5483Y1.3010Z-0.00499
G01 X1.5602Y1.2974Z-0.00501
G01 X1.5711Y1.2916Z-0.00503
G01 X1.5807Y1.2837Z-0.00506
G01 X1.5886Y1.2741Z-0.00509
G01 X1.5940Y1.2642Z-0.00512
G01 X1.5965Y1.2574Z-0.00514
G01 X1.5988Y1.2463Z-0.00517
G01 X1.5992Y1.2385Z-0.00519
G01 X1.5980Y1.2267Z-0.00521
G01 X1.5944Y1.2148Z-0.00524
G01 X1.5886Y1.2039Z-0.00526
G01 X1.5816Y1.1952Z-0.00527
G01 X1.58011Y1.00821Z-0.00571 ;segmented line. Max segment length set to 0.187
G01 X1.5797Y0.9569Z-0.00583
G01 X1.6681Y0.8691Z-0.00642
G01 X1.6751Y0.8575Z-0.00649
G01 X1.6774Y0.8502Z-0.00653
G01 X1.6785Y0.8434Z-0.00657
G01 X1.67854Y0.65640Z-0.00765 ;segmented line. Max segment length set to 0.187
G01 X1.67858Y0.46940Z-0.00864 ;segmented line. Max segment length set to 0.187
G01 X1.6786Y0.3420Z-0.00927
G01 X1.6778Y0.3333Z-0.00931
G01 X1.6733Y0.3207Z-0.00938
G01 X1.6661Y0.3107Z-0.00943
G01 X1.5621Y0.2061Z-0.00966
G01 X1.5555Y0.2018Z-0.00966
G01 X1.5485Y0.1988Z-0.00966
G01 X1.5353Y0.1964Z-0.00963
G01 X1.34830Y0.19640Z-0.00911 ;segmented line. Max segment length set to 0.187
G01 X1.3350Y0.1964Z-0.00908
G01 X1.3261Y0.1973Z-0.00905
G01 X1.3151Y0.2010Z-0.00900
G01 X1.3061Y0.2068Z-0.00896
G01 X1.2350Y0.2755Z-0.00856
G01 X1.1649Y0.2068Z-0.00865
G01 X1.1535Y0.1999Z-0.00865
G01 X1.1415Y0.1967Z-0.00864
G01 X1.0363Y0.1964Z-0.00843
G01 X0.84931Y0.19419Z-0.00808 ;segmented line. Max segment length set to 0.187
G01 X0.66232Y0.19198Z-0.00787 ;segmented line. Max segment length set to 0.187
G01 X0.6305Y0.1916Z-0.00783
G01 X0.6175Y0.1949Z-0.00780
G01 X0.6101Y0.1988Z-0.00777
G01 X0.6053Y0.2024Z-0.00775
G01 X0.4991Y0.3089Z-0.00707
G01 X0.4948Y0.3155Z-0.00703
G01 X0.4917Y0.3228Z-0.00698
G01 X0.4901Y0.3291Z-0.00695
G01 X0.4894Y0.3370Z-0.00691
G01 X0.48940Y0.52400Z-0.00593 ;segmented line. Max segment length set to 0.187
G01 X0.48940Y0.71100Z-0.00522 ;segmented line. Max segment length set to 0.187
G01 X0.48940Y0.89800Z-0.00463 ;segmented line. Max segment length set to 0.187
G01 X0.48940Y1.08500Z-0.00405 ;segmented line. Max segment length set to 0.187
G01 X0.48940Y1.27200Z-0.00346 ;segmented line. Max segment length set to 0.187
G01 X0.48940Y1.45900Z-0.00294 ;segmented line. Max segment length set to 0.187
G01 X0.4894Y1.6392Z-0.00247
G00 Z0.1000
G00 X0.0794Y1.7396
G01 Z-0.00122
G01 X0.0794Y1.7740Z-0.00129
G01 X0.0801Y1.7792Z-0.00130
G01 X0.0825Y1.7851Z-0.00132
G01 X0.0850Y1.7885Z-0.00134
G01 X0.0899Y1.7925Z-0.00136
G01 X0.0937Y1.7943Z-0.00137
G01 X0.1010Y1.7956Z-0.00139
G01 X0.1742Y1.7954Z-0.00158
G01 X0.1783Y1.7943Z-0.00159
G01 X0.1839Y1.7913Z-0.00160
G01 X0.1883Y1.7869Z-0.00160
G01 X0.1913Y1.7813Z-0.00160
G01 X0.1926Y1.7740Z-0.00159
G01 X0.1924Y1.7008Z-0.00148
G01 X0.1895Y1.6929Z-0.00149
G01 X0.1855Y1.6880Z-0.00148
G01 X0.1802Y1.6845Z-0.00148
G01 X0.1723Y1.6824Z-0.00146
G01 X0.1825Y1.6713Z-0.00151
G01 X0.1887Y1.6597Z-0.00154
G01 X0.1913Y1.6511Z-0.00157
G01 X0.1923Y1.6445Z-0.00158
G01 X0.1926Y1.6379Z-0.00160
G01 X0.1917Y1.6290Z-0.00161
G01 X0.1883Y1.6173Z-0.00162
G01 X0.1825Y1.6067Z-0.00162
G01 X0.1727Y1.5959Z-0.00161
G01 X0.1625Y1.5890Z-0.00159
G01 X0.1683Y1.5855Z-0.00162
G01 X0.1760Y1.5790Z-0.00165
G01 X0.1825Y1.5713Z-0.00169
G01 X0.1859Y1.5657Z-0.00171
G01 X0.1898Y1.5564Z-0.00174
G01 X0.1915Y1.5500Z-0.00175
G01 X0.1926Y1.5401Z-0.00178
G01 X0.1923Y1.5335Z-0.00179
G01 X0.1898Y1.5216Z-0.00180
G01 X0.1864Y1.5133Z-0.00180
G01 X0.1831Y1.5076Z-0.00180
G01 X0.1791Y1.5023Z-0.00180
G01 X0.1727Y1.4959Z-0.00179
G01 X0.1625Y1.4890Z-0.00177
G01 X0.1683Y1.4855Z-0.00179
G01 X0.1760Y1.4790Z-0.00183
G01 X0.1825Y1.4713Z-0.00187
G01 X0.1859Y1.4657Z-0.00189
G01 X0.1898Y1.4564Z-0.00192
G01 X0.1915Y1.4500Z-0.00194
G01 X0.1924Y1.4435Z-0.00195
G01 X0.1924Y1.4345Z-0.00197
G01 X0.1898Y1.4216Z-0.00198
G01 X0.1864Y1.4133Z-0.00199
G01 X0.1831Y1.4076Z-0.00198
G01 X0.1791Y1.4023Z-0.00198
G01 X0.1727Y1.3959Z-0.00197
G01 X0.1625Y1.3890Z-0.00194
G01 X0.1719Y1.3828Z-0.00199
G01 X0.1806Y1.3738Z-0.00204
G01 X0.2230Y1.3744Z-0.00219
G01 X0.3034Y1.4540Z-0.00231
G01 X0.30340Y1.64100Z-0.00192 ;segmented line. Max segment length set to 0.187
G01 X0.30340Y1.82800Z-0.00197 ;segmented line. Max segment length set to 0.187
G01 X0.3034Y1.9375Z-0.00216
G01 X0.3040Y1.9436Z-0.00217
G01 X0.3057Y1.9491Z-0.00218
G01 X0.3110Y1.9583Z-0.00221
G01 X0.4124Y2.0649Z-0.00259
G01 X0.4201Y2.0706Z-0.00262
G01 X0.4286Y2.0738Z-0.00264
G01 X0.4362Y2.0746Z-0.00266
G01 X0.62319Y2.07319Z-0.00297 ;segmented line. Max segment length set to 0.187
G01 X0.6875Y2.0727Z-0.00306
G01 X0.6977Y2.0840Z-0.00309
G01 X0.7081Y2.0911Z-0.00310
G01 X0.7144Y2.0940Z-0.00311
G01 X0.7234Y2.0967Z-0.00313
G01 X0.7371Y2.0981Z-0.00315
G01 X0.7465Y2.0971Z-0.00316
G01 X0.7532Y2.0956Z-0.00317
G01 X0.7596Y2.0932Z-0.00318
G01 X0.7688Y2.0881Z-0.00319
G01 X0.7743Y2.0840Z-0.00320
G01 X0.7817Y2.0765Z-0.00321
G01 X0.7857Y2.0709Z-0.00321
G01 X0.7902Y2.0626Z-0.00322
G01 X0.7940Y2.0505Z-0.00322
G01 X0.7951Y2.0395Z-0.00321
G01 X0.7940Y2.0275Z-0.00320
G01 X0.7902Y2.0154Z-0.00319
G01 X0.7823Y2.0023Z-0.00317
G01 X0.7743Y1.9940Z-0.00315
G01 X0.7639Y1.9869Z-0.00313
G01 X0.7542Y1.9828Z-0.00311
G01 X0.7465Y1.9809Z-0.00310
G01 X0.7360Y1.9799Z-0.00308
G01 X0.7255Y1.9809Z-0.00306
G01 X0.7178Y1.9828Z-0.00305
G01 X0.7081Y1.9869Z-0.00303
G01 X0.6993Y1.9927Z-0.00302
G01 X0.6935Y1.9980Z-0.00302
G01 X0.6873Y2.0055Z-0.00301
G01 X0.50031Y2.00692Z-0.00269 ;segmented line. Max segment length set to 0.187
G01 X0.4503Y2.0073Z-0.00259
G01 X0.3706Y1.9236Z-0.00229
G01 X0.37060Y1.73660Z-0.00200 ;segmented line. Max segment length set to 0.187
G01 X0.37060Y1.54960Z-0.00233 ;segmented line. Max segment length set to 0.187
G01 X0.3706Y1.4399Z-0.00258
G01 X0.3691Y1.4301Z-0.00260
G01 X0.3655Y1.4222Z-0.00260
G01 X0.3608Y1.4162Z-0.00260
G01 X0.2606Y1.3171Z-0.00246
G01 X0.2561Y1.3133Z-0.00246
G01 X0.2487Y1.3095Z-0.00244
G01 X0.2401Y1.3075Z-0.00242
G01 X0.1824Y1.3066Z-0.00220
G01 X0.1727Y1.2959Z-0.00220
G01 X0.1625Y1.2890Z-0.00219
G01 X0.1683Y1.2855Z-0.00222
G01 X0.1753Y1.2798Z-0.00227
G01 X0.1836Y1.2695Z-0.00233
G01 X0.1879Y1.2616Z-0.00238
G01 X0.1902Y1.2554Z-0.00240
G01 X0.1917Y1.2490Z-0.00243
G01 X0.1926Y1.2395Z-0.00247
G01 X0.1922Y1.2324Z-0.00249
G01 X0.1904Y1.2236Z-0.00251
G01 X0.1854Y1.2114Z-0.00253
G01 X0.1804Y1.2039Z-0.00254
G01 X0.1760Y1.1990Z-0.00254
G01 X0.1683Y1.1925Z-0.00253
G01 X0.1625Y1.1890Z-0.00252
G01 X0.1683Y1.1855Z-0.00256
G01 X0.1753Y1.1798Z-0.00260
G01 X0.1836Y1.1695Z-0.00267
G01 X0.1879Y1.1616Z-0.00271
G01 X0.1902Y1.1554Z-0.00274
G01 X0.1917Y1.1490Z-0.00277
G01 X0.1926Y1.1401Z-0.00280
G01 X0.1922Y1.1324Z-0.00282
G01 X0.1904Y1.1236Z-0.00285
G01 X0.1854Y1.1114Z-0.00287
G01 X0.1804Y1.1039Z-0.00288
G01 X0.1760Y1.0990Z-0.00288
G01 X0.1683Y1.0925Z-0.00287
G01 X0.1625Y1.0890Z-0.00286
G01 X0.1719Y1.0828Z-0.00292
G01 X0.1804Y1.0741Z-0.00297
G01 X0.1879Y1.0616Z-0.00304
G01 X0.1915Y1.0500Z-0.00310
G01 X0.1926Y1.0401Z-0.00313
G01 X0.1922Y1.0324Z-0.00316
G01 X0.1902Y1.0226Z-0.00318
G01 X0.1864Y1.0133Z-0.00320
G01 X0.1825Y1.0067Z-0.00321
G01 X0.1760Y0.9990Z-0.00321
G01 X0.1683Y0.9925Z-0.00321
G01 X0.1625Y0.9890Z-0.00320
G01 X0.1683Y0.9855Z-0.00323
G01 X0.1760Y0.9790Z-0.00328
G01 X0.1825Y0.9713Z-0.00333
G01 X0.1859Y0.9657Z-0.00336
G01 X0.1887Y0.9597Z-0.00339
G01 X0.1915Y0.9500Z-0.00344
G01 X0.1926Y0.9401Z-0.00349
G01 X0.1923Y0.9335Z-0.00352
G01 X0.1913Y0.9269Z-0.00355
G01 X0.1887Y0.9183Z-0.00358
G01 X0.1831Y0.9076Z-0.00361
G01 X0.1791Y0.9023Z-0.00362
G01 X0.1727Y0.8959Z-0.00363
G01 X0.1625Y0.8890Z-0.00363
G01 X0.1727Y0.8821Z-0.00370
G01 X0.1791Y0.8757Z-0.00375
G01 X0.1831Y0.8704Z-0.00379
G01 X0.1887Y0.8597Z-0.00386
G01 X0.1913Y0.8511Z-0.00390
G01 X0.1923Y0.8445Z-0.00394
G01 X0.1926Y0.8379Z-0.00397
G01 X0.1915Y0.8280Z-0.00401
G01 X0.1887Y0.8183Z-0.00405
G01 X0.1859Y0.8123Z-0.00407
G01 X0.1825Y0.8067Z-0.00409
G01 X0.1760Y0.7990Z-0.00411
G01 X0.1683Y0.7925Z-0.00412
G01 X0.1625Y0.7890Z-0.00412
G01 X0.1683Y0.7855Z-0.00415
G01 X0.1760Y0.7790Z-0.00421
G01 X0.1825Y0.7713Z-0.00426
G01 X0.1864Y0.7647Z-0.00430
G01 X0.1902Y0.7554Z-0.00435
G01 X0.1922Y0.7456Z-0.00440
G01 X0.1926Y0.7379Z-0.00444
G01 X0.1915Y0.7280Z-0.00449
G01 X0.1879Y0.7164Z-0.00453
G01 X0.1804Y0.7039Z-0.00457
G01 X0.1719Y0.6952Z-0.00460
G01 X0.1625Y0.6890Z-0.00461
G01 X0.1683Y0.6855Z-0.00464
G01 X0.1760Y0.6790Z-0.00468
G01 X0.1825Y0.6713Z-0.00473
G01 X0.1859Y0.6657Z-0.00477
G01 X0.1887Y0.6597Z-0.00480
G01 X0.1915Y0.6500Z-0.00485
G01 X0.1926Y0.6401Z-0.00490
G01 X0.1923Y0.6335Z-0.00493
G01 X0.1913Y0.6269Z-0.00496
G01 X0.1887Y0.6183Z-0.00500
G01 X0.1831Y0.6076Z-0.00504
G01 X0.1791Y0.6023Z-0.00506
G01 X0.1727Y0.5959Z-0.00508
G01 X0.1625Y0.5890Z-0.00510
G01 X0.1683Y0.5855Z-0.00512
G01 X0.1760Y0.5790Z-0.00516
G01 X0.1804Y0.5741Z-0.00520
G01 X0.1854Y0.5666Z-0.00524
G01 X0.1904Y0.5544Z-0.00531
G01 X0.1922Y0.5456Z-0.00536
G01 X0.1926Y0.5379Z-0.00540
G01 X0.1917Y0.5290Z-0.00544
G01 X0.1902Y0.5226Z-0.00547
G01 X0.1879Y0.5164Z-0.00550
G01 X0.1836Y0.5085Z-0.00553
G01 X0.1753Y0.4982Z-0.00557
G01 X0.1683Y0.4925Z-0.00559
G01 X0.1625Y0.4890Z-0.00560
G01 X0.1683Y0.4855Z-0.00562
G01 X0.1760Y0.4790Z-0.00567
G01 X0.1804Y0.4741Z-0.00570
G01 X0.1854Y0.4666Z-0.00575
G01 X0.1904Y0.4544Z-0.00581
G01 X0.1922Y0.4456Z-0.00586
G01 X0.1926Y0.4385Z-0.00590
G01 X0.1917Y0.4290Z-0.00594
G01 X0.1902Y0.4226Z-0.00597
G01 X0.1879Y0.4164Z-0.00600
G01 X0.1836Y0.4085Z-0.00604
G01 X0.1753Y0.3982Z-0.00607
G01 X0.1683Y0.3925Z-0.00609
G01 X0.1625Y0.3890Z-0.00610
G01 X0.1683Y0.3855Z-0.00613
G01 X0.1760Y0.3790Z-0.00617
G01 X0.1804Y0.3741Z-0.00620
G01 X0.1854Y0.3666Z-0.00625
G01 X0.1904Y0.3544Z-0.00632
G01 X0.1922Y0.3456Z-0.00637
G01 X0.1926Y0.3385Z-0.00640
G01 X0.1915Y0.3280Z-0.00645
G01 X0.1883Y0.3173Z-0.00650
G01 X0.1831Y0.3076Z-0.00654
G01 X0.1760Y0.2990Z-0.00657
G01 X0.1674Y0.2919Z-0.00659
G01 X0.1577Y0.2867Z-0.00660
G01 X0.1470Y0.2835Z-0.00660
G01 X0.1371Y0.2824Z-0.00659
G01 X0.1250Y0.2835Z-0.00656
G01 X0.1143Y0.2867Z-0.00653
G01 X0.1046Y0.2919Z-0.00649
G01 X0.0960Y0.2990Z-0.00644
G01 X0.0889Y0.3076Z-0.00638
G01 X0.0837Y0.3173Z-0.00633
G01 X0.0805Y0.3280Z-0.00627
G01 X0.0794Y0.3379Z-0.00622
G01 X0.0798Y0.3456Z-0.00618
G01 X0.0816Y0.3544Z-0.00614
G01 X0.0866Y0.3666Z-0.00609
G01 X0.0916Y0.3741Z-0.00606
G01 X0.0960Y0.3790Z-0.00604
G01 X0.1037Y0.3855Z-0.00602
G01 X0.1095Y0.3890Z-0.00601
G01 X0.1037Y0.3925Z-0.00599
G01 X0.0960Y0.3990Z-0.00594
G01 X0.0895Y0.4067Z-0.00589
G01 X0.0856Y0.4133Z-0.00585
G01 X0.0818Y0.4226Z-0.00580
G01 X0.0798Y0.4324Z-0.00575
G01 X0.0794Y0.4401Z-0.00571
G01 X0.0805Y0.4500Z-0.00566
G01 X0.0841Y0.4616Z-0.00561
G01 X0.0916Y0.4741Z-0.00556
G01 X0.1001Y0.4828Z-0.00553
G01 X0.1095Y0.4890Z-0.00551
G01 X0.1037Y0.4925Z-0.00549
G01 X0.0967Y0.4982Z-0.00545
G01 X0.0884Y0.5085Z-0.00538
G01 X0.0841Y0.5164Z-0.00534
G01 X0.0818Y0.5226Z-0.00530
G01 X0.0803Y0.5290Z-0.00527
G01 X0.0794Y0.5379Z-0.00522
G01 X0.0807Y0.5511Z-0.00516
G01 X0.0833Y0.5597Z-0.00512
G01 X0.0866Y0.5666Z-0.00509
G01 X0.0916Y0.5741Z-0.00506
G01 X0.0960Y0.5790Z-0.00504
G01 X0.1037Y0.5855Z-0.00502
G01 X0.1095Y0.5890Z-0.00501
G01 X0.0993Y0.5959Z-0.00496
G01 X0.0929Y0.6023Z-0.00492
G01 X0.0889Y0.6076Z-0.00488
G01 X0.0833Y0.6183Z-0.00482
G01 X0.0807Y0.6269Z-0.00477
G01 X0.0797Y0.6335Z-0.00473
G01 X0.0794Y0.6401Z-0.00470
G01 X0.0805Y0.6500Z-0.00465
G01 X0.0822Y0.6564Z-0.00461
G01 X0.0861Y0.6657Z-0.00457
G01 X0.0895Y0.6713Z-0.00455
G01 X0.0960Y0.6790Z-0.00452
G01 X0.1037Y0.6855Z-0.00450
G01 X0.1095Y0.6890Z-0.00450
G01 X0.1037Y0.6925Z-0.00447
G01 X0.0960Y0.6990Z-0.00442
G01 X0.0895Y0.7067Z-0.00436
G01 X0.0856Y0.7133Z-0.00432
G01 X0.0818Y0.7226Z-0.00426
G01 X0.0798Y0.7324Z-0.00421
G01 X0.0794Y0.7401Z-0.00416
G01 X0.0805Y0.7500Z-0.00411
G01 X0.0841Y0.7616Z-0.00406
G01 X0.0916Y0.7741Z-0.00401
G01 X0.1001Y0.7828Z-0.00399
G01 X0.1095Y0.7890Z-0.00398
G01 X0.1037Y0.7925Z-0.00395
G01 X0.0960Y0.7990Z-0.00390
G01 X0.0916Y0.8039Z-0.00386
G01 X0.0861Y0.8123Z-0.00380
G01 X0.0822Y0.8216Z-0.00374
G01 X0.0805Y0.8280Z-0.00370
G01 X0.0796Y0.8345Z-0.00366
G01 X0.0797Y0.8445Z-0.00361
G01 X0.0807Y0.8511Z-0.00358
G01 X0.0833Y0.8597Z-0.00354
G01 X0.0889Y0.8704Z-0.00350
G01 X0.0929Y0.8757Z-0.00349
G01 X0.0993Y0.8821Z-0.00347
G01 X0.1095Y0.8890Z-0.00347
G01 X0.0993Y0.8959Z-0.00340
G01 X0.0929Y0.9023Z-0.00335
G01 X0.0889Y0.9076Z-0.00331
G01 X0.0856Y0.9133Z-0.00326
G01 X0.0822Y0.9216Z-0.00321
G01 X0.0796Y0.9345Z-0.00313
G01 X0.0796Y0.9435Z-0.00308
G01 X0.0805Y0.9500Z-0.00305
G01 X0.0822Y0.9564Z-0.00302
G01 X0.0861Y0.9657Z-0.00301
G01 X0.0895Y0.9713Z-0.00300
G01 X0.0960Y0.9790Z-0.00300
G01 X0.1037Y0.9855Z-0.00300
G01 X0.1095Y0.9890Z-0.00301
G01 X0.1037Y0.9925Z-0.00298
G01 X0.0960Y0.9990Z-0.00293
G01 X0.0895Y1.0067Z-0.00288
G01 X0.0856Y1.0133Z-0.00284
G01 X0.0818Y1.0226Z-0.00280
G01 X0.0798Y1.0324Z-0.00276
G01 X0.0794Y1.0401Z-0.00273
G01 X0.0805Y1.0500Z-0.00270
G01 X0.0841Y1.0616Z-0.00267
G01 X0.0916Y1.0741Z-0.00266
G01 X0.1001Y1.0828Z-0.00266
G01 X0.1095Y1.0890Z-0.00267
G01 X0.0993Y1.0959Z-0.00261
G01 X0.0929Y1.1023Z-0.00256
G01 X0.0889Y1.1076Z-0.00253
G01 X0.0856Y1.1133Z-0.00250
G01 X0.0822Y1.1216Z-0.00246
G01 X0.0797Y1.1335Z-0.00241
G01 X0.0794Y1.1401Z-0.00239
G01 X0.0805Y1.1500Z-0.00236
G01 X0.0833Y1.1597Z-0.00233
G01 X0.0861Y1.1657Z-0.00232
G01 X0.0916Y1.1741Z-0.00232
G01 X0.0960Y1.1790Z-0.00231
G01 X0.1037Y1.1855Z-0.00232
G01 X0.1095Y1.1890Z-0.00233
G01 X0.1037Y1.1925Z-0.00230
G01 X0.0960Y1.1990Z-0.00225
G01 X0.0895Y1.2067Z-0.00220
G01 X0.0856Y1.2133Z-0.00216
G01 X0.0818Y1.2226Z-0.00211
G01 X0.0798Y1.2324Z-0.00207
G01 X0.0794Y1.2401Z-0.00205
G01 X0.0805Y1.2500Z-0.00202
G01 X0.0841Y1.2616Z-0.00199
G01 X0.0916Y1.2741Z-0.00197
G01 X0.1001Y1.2828Z-0.00198
G01 X0.1095Y1.2890Z-0.00199
G01 X0.1037Y1.2925Z-0.00196
G01 X0.0960Y1.2990Z-0.00191
G01 X0.0916Y1.3039Z-0.00187
G01 X0.0861Y1.3123Z-0.00182
G01 X0.0833Y1.3183Z-0.00179
G01 X0.0805Y1.3280Z-0.00175
G01 X0.0796Y1.3345Z-0.00173
G01 X0.0796Y1.3435Z-0.00171
G01 X0.0822Y1.3564Z-0.00170
G01 X0.0856Y1.3647Z-0.00170
G01 X0.0889Y1.3704Z-0.00171
G01 X0.0929Y1.3757Z-0.00171
G01 X0.0993Y1.3821Z-0.00173
G01 X0.1095Y1.3890Z-0.00175
G01 X0.1037Y1.3925Z-0.00172
G01 X0.0960Y1.3990Z-0.00169
G01 X0.0916Y1.4039Z-0.00166
G01 X0.0866Y1.4114Z-0.00163
G01 X0.0833Y1.4183Z-0.00161
G01 X0.0807Y1.4269Z-0.00159
G01 X0.0794Y1.4401Z-0.00156
G01 X0.0803Y1.4490Z-0.00155
G01 X0.0818Y1.4554Z-0.00155
G01 X0.0841Y1.4616Z-0.00155
G01 X0.0884Y1.4695Z-0.00155
G01 X0.0967Y1.4798Z-0.00156
G01 X0.1037Y1.4855Z-0.00158
G01 X0.1095Y1.4890Z-0.00159
G01 X0.1037Y1.4925Z-0.00157
G01 X0.0967Y1.4982Z-0.00153
G01 X0.0884Y1.5085Z-0.00149
G01 X0.0841Y1.5164Z-0.00146
G01 X0.0818Y1.5226Z-0.00145
G01 X0.0798Y1.5324Z-0.00142
G01 X0.0794Y1.5390Z-0.00141
G01 X0.0798Y1.5456Z-0.00140
G01 X0.0818Y1.5554Z-0.00139
G01 X0.0841Y1.5616Z-0.00139
G01 X0.0884Y1.5695Z-0.00139
G01 X0.0967Y1.5798Z-0.00140
G01 X0.1037Y1.5855Z-0.00142
G01 X0.1095Y1.5890Z-0.00143
G01 X0.1001Y1.5952Z-0.00139
G01 X0.0916Y1.6039Z-0.00135
G01 X0.0841Y1.6164Z-0.00131
G01 X0.0805Y1.6280Z-0.00128
G01 X0.0796Y1.6345Z-0.00127
G01 X0.0796Y1.6435Z-0.00125
G01 X0.0822Y1.6564Z-0.00124
G01 X0.0856Y1.6647Z-0.00124
G01 X0.0889Y1.6704Z-0.00124
G01 X0.0929Y1.6757Z-0.00124
G01 X0.0997Y1.6824Z-0.00125
G01 X0.0937Y1.6837Z-0.00123
G01 X0.0881Y1.6867Z-0.00121
G01 X0.0837Y1.6911Z-0.00119
G01 X0.0807Y1.6967Z-0.00117
G01 X0.0794Y1.7029Z-0.00116
G01 X0.0794Y1.7396Z-0.00122
G00 Z0.1000
G00 X1.3860Y1.8014
G01 Z-0.00374
G01 X1.3806Y1.7951Z-0.00374
G01 X1.3804Y1.7375Z-0.00375
G01 X1.3786Y1.7288Z-0.00375
G01 X1.3747Y1.7196Z-0.00375
G01 X1.3676Y1.7101Z-0.00375
G01 X1.2806Y1.6231Z-0.00388
G01 X1.28100Y1.43610Z-0.00438 ;segmented line. Max segment length set to 0.187
G01 X1.28140Y1.24910Z-0.00485 ;segmented line. Max segment length set to 0.187
G01 X1.2816Y1.1558Z-0.00506
G01 X1.3674Y1.0691Z-0.00535
G01 X1.3730Y1.0621Z-0.00538
G01 X1.3776Y1.0532Z-0.00540
G01 X1.3803Y1.0425Z-0.00543
G01 X1.3806Y1.0019Z-0.00552
G01 X1.3890Y1.0036Z-0.00553
G01 X1.4830Y1.0036Z-0.00562
G01 X1.4889Y1.0028Z-0.00563
G01 X1.4894Y1.0684Z-0.00548
G01 X1.4830Y1.0674Z-0.00547
G01 X1.3858Y1.0676Z-0.00538
G01 X1.3798Y1.0695Z-0.00537
G01 X1.3745Y1.0730Z-0.00535
G01 X1.3705Y1.0779Z-0.00534
G01 X1.3676Y1.0858Z-0.00531
G01 X1.3674Y1.1760Z-0.00510
G01 X1.3687Y1.1833Z-0.00509
G01 X1.3730Y1.1905Z-0.00507
G01 X1.3798Y1.1955Z-0.00507
G01 X1.3879Y1.1976Z-0.00507
G01 X1.4021Y1.1976Z-0.00509
G01 X1.4004Y1.3409Z-0.00475
G01 X1.4019Y1.3511Z-0.00472
G01 X1.4052Y1.3583Z-0.00471
G01 X1.4100Y1.3645Z-0.00469
G01 X1.4741Y1.4261Z-0.00460
G01 X1.4727Y1.4390Z-0.00456
G01 X1.4740Y1.4517Z-0.00453
G01 X1.4101Y1.5124Z-0.00431
G01 X1.4046Y1.5197Z-0.00428
G01 X1.4012Y1.5286Z-0.00425
G01 X1.4004Y1.5362Z-0.00423
G01 X1.40175Y1.72320Z-0.00378 ;segmented line. Max segment length set to 0.187
G01 X1.4022Y1.7863Z-0.00376
G01 X1.3925Y1.7940Z-0.00375
G01 X1.3860Y1.8014Z-0.00374
G00 Z0.1000
G00 X1.3806Y0.8761
G01 Z-0.00608
G01 X1.38060Y0.68910Z-0.00712 ;segmented line. Max segment length set to 0.187
G01 X1.3806Y0.6589Z-0.00729
G01 X1.4666Y0.5729Z-0.00787
G01 X1.4725Y0.5654Z-0.00791
G01 X1.4771Y0.5558Z-0.00795
G01 X1.4787Y0.5499Z-0.00798
G01 X1.4796Y0.5421Z-0.00801
G01 X1.4816Y0.3828Z-0.00869
G01 X1.4886Y0.3741Z-0.00874
G01 X1.4944Y0.3632Z-0.00880
G01 X1.4980Y0.3513Z-0.00886
G01 X1.4992Y0.3385Z-0.00892
G01 X1.4988Y0.3317Z-0.00895
G01 X1.4968Y0.3217Z-0.00899
G01 X1.4918Y0.3092Z-0.00903
G01 X1.4842Y0.2981Z-0.00906
G01 X1.4728Y0.2876Z-0.00908
G01 X1.5150Y0.2876Z-0.00918
G01 X1.5874Y0.3608Z-0.00901
G01 X1.58740Y0.54780Z-0.00814 ;segmented line. Max segment length set to 0.187
G01 X1.58740Y0.73480Z-0.00711 ;segmented line. Max segment length set to 0.187
G01 X1.5874Y0.8210Z-0.00662
G01 X1.5046Y0.9029Z-0.00606
G01 X1.5044Y0.8928Z-0.00612
G01 X1.5015Y0.8849Z-0.00616
G01 X1.4959Y0.8787Z-0.00619
G01 X1.4882Y0.8750Z-0.00620
G01 X1.4830Y0.8744Z-0.00620
G01 X1.3890Y0.8744Z-0.00610
G01 X1.3806Y0.8761Z-0.00608
G00 Z0.1000
G00 X1.3992Y0.2876
G01 Z-0.00890
G01 X1.3878Y0.2981Z-0.00883
G01 X1.3802Y0.3092Z-0.00877
G01 X1.3752Y0.3217Z-0.00871
G01 X1.3732Y0.3317Z-0.00867
G01 X1.3728Y0.3379Z-0.00864
G01 X1.3740Y0.3513Z-0.00859
G01 X1.3776Y0.3632Z-0.00856
G01 X1.3834Y0.3741Z-0.00853
G01 X1.3904Y0.3828Z-0.00851
G01 X1.3886Y0.5219Z-0.00796
G01 X1.3051Y0.6054Z-0.00750
G01 X1.2846Y0.6054Z-0.00747
G01 X1.2778Y0.5972Z-0.00751
G01 X1.2696Y0.5904Z-0.00753
G01 X1.2696Y0.5876Z-0.00755
G01 X1.2810Y0.5773Z-0.00761
G01 X1.2886Y0.5659Z-0.00766
G01 X1.2937Y0.5516Z-0.00772
G01 X1.2951Y0.5385Z-0.00777
G01 X1.2928Y0.5229Z-0.00782
G01 X1.2881Y0.5111Z-0.00785
G01 X1.2845Y0.5053Z-0.00787
G01 X1.2785Y0.4980Z-0.00788
G01 X1.2688Y0.4899Z-0.00789
G01 X1.2629Y0.4864Z-0.00789
G01 X1.2542Y0.4828Z-0.00789
G01 X1.2418Y0.4802Z-0.00787
G01 X1.2292Y0.4803Z-0.00785
G01 X1.2144Y0.4840Z-0.00780
G01 X1.2032Y0.4899Z-0.00776
G01 X1.1935Y0.4980Z-0.00772
G01 X1.1844Y0.5102Z-0.00766
G01 X1.1792Y0.5229Z-0.00760
G01 X1.1773Y0.5322Z-0.00757
G01 X1.1769Y0.5401Z-0.00754
G01 X1.1780Y0.5505Z-0.00751
G01 X1.1810Y0.5606Z-0.00748
G01 X1.1844Y0.5678Z-0.00746
G01 X1.1903Y0.5765Z-0.00744
G01 X1.1950Y0.5815Z-0.00743
G01 X1.2024Y0.5876Z-0.00742
G01 X1.2024Y0.5904Z-0.00740
G01 X1.1942Y0.5972Z-0.00735
G01 X1.1863Y0.6071Z-0.00728
G01 X1.1814Y0.6164Z-0.00723
G01 X1.1780Y0.6275Z-0.00716
G01 X1.1769Y0.6390Z-0.00710
G01 X1.1780Y0.6505Z-0.00705
G01 X1.1814Y0.6616Z-0.00699
G01 X1.1875Y0.6727Z-0.00695
G01 X1.1977Y0.6840Z-0.00690
G01 X1.2081Y0.6911Z-0.00688
G01 X1.2199Y0.6958Z-0.00688
G01 X1.2292Y0.6977Z-0.00688
G01 X1.2360Y0.6981Z-0.00689
G01 X1.2475Y0.6970Z-0.00691
G01 X1.2596Y0.6932Z-0.00695
G01 X1.2679Y0.6887Z-0.00699
G01 X1.2735Y0.6847Z-0.00702
G01 X1.2785Y0.6800Z-0.00705
G01 X1.2844Y0.6729Z-0.00710
G01 X1.2894Y0.6730Z-0.00710
G01 X1.28940Y0.86000Z-0.00607 ;segmented line. Max segment length set to 0.187
G01 X1.2894Y1.0057Z-0.00542
G01 X1.2848Y1.0057Z-0.00542
G01 X1.2785Y0.9980Z-0.00543
G01 X1.2735Y0.9933Z-0.00544
G01 X1.2648Y0.9874Z-0.00544
G01 X1.2576Y0.9840Z-0.00545
G01 X1.2486Y0.9813Z-0.00545
G01 X1.2418Y0.9802Z-0.00545
G01 X1.2313Y0.9801Z-0.00544
G01 X1.2245Y0.9810Z-0.00544
G01 X1.2178Y0.9828Z-0.00543
G01 X1.2081Y0.9869Z-0.00542
G01 X1.2023Y0.9905Z-0.00540
G01 X1.1942Y0.9972Z-0.00538
G01 X1.1875Y1.0053Z-0.00536
G01 X1.1839Y1.0111Z-0.00534
G01 X1.1798Y1.0208Z-0.00532
G01 X1.1779Y1.0285Z-0.00530
G01 X1.1769Y1.0390Z-0.00527
G01 X1.1779Y1.0495Z-0.00525
G01 X1.1798Y1.0572Z-0.00523
G01 X1.1839Y1.0669Z-0.00521
G01 X1.1903Y1.0765Z-0.00519
G01 X1.1977Y1.0840Z-0.00517
G01 X1.2072Y1.0906Z-0.00516
G01 X1.2144Y1.0940Z-0.00516
G01 X1.2029Y1.1057Z-0.00512
G01 X1.1974Y1.1128Z-0.00510
G01 X1.1924Y1.1237Z-0.00507
G01 X1.1905Y1.1338Z-0.00505
G01 X1.19010Y1.32080Z-0.00459 ;segmented line. Max segment length set to 0.187
G01 X1.18969Y1.50780Z-0.00410 ;segmented line. Max segment length set to 0.187
G01 X1.1895Y1.5961Z-0.00386
G01 X1.0404Y1.5951Z-0.00372
G01 X0.9954Y1.5507Z-0.00379
G01 X0.9966Y1.5401Z-0.00382
G01 X0.9963Y1.5331Z-0.00384
G01 X0.9943Y1.5224Z-0.00386
G01 X0.9920Y1.5158Z-0.00388
G01 X0.9889Y1.5095Z-0.00389
G01 X0.9828Y1.5006Z-0.00391
G01 X0.9781Y1.4954Z-0.00392
G01 X0.9702Y1.4890Z-0.00392
G01 X0.9781Y1.4826Z-0.00395
G01 X0.9828Y1.4774Z-0.00397
G01 X0.9889Y1.4685Z-0.00400
G01 X0.9920Y1.4622Z-0.00402
G01 X0.9943Y1.4556Z-0.00404
G01 X0.9963Y1.4449Z-0.00407
G01 X0.9964Y1.4341Z-0.00409
G01 X0.9954Y1.4271Z-0.00411
G01 X1.0602Y1.3622Z-0.00435
G01 X1.0660Y1.3529Z-0.00438
G01 X1.0684Y1.3434Z-0.00440
G01 X1.06898Y1.15640Z-0.00490 ;segmented line. Max segment length set to 0.187
G01 X1.0695Y0.9895Z-0.00534
G01 X1.0796Y0.9811Z-0.00536
G01 X1.0858Y0.9735Z-0.00539
G01 X1.0894Y0.9676Z-0.00540
G01 X1.0943Y0.9556Z-0.00544
G01 X1.0962Y0.9460Z-0.00549
G01 X1.0966Y0.9395Z-0.00552
G01 X1.0952Y0.9261Z-0.00558
G01 X1.0924Y0.9168Z-0.00562
G01 X1.0894Y0.9104Z-0.00565
G01 X1.0858Y0.9045Z-0.00568
G01 X1.0796Y0.8969Z-0.00571
G01 X1.0696Y0.8886Z-0.00574
G01 X1.0696Y0.7894Z-0.00621
G01 X1.0796Y0.7811Z-0.00626
G01 X1.0858Y0.7735Z-0.00630
G01 X1.0894Y0.7676Z-0.00633
G01 X1.0924Y0.7612Z-0.00637
G01 X1.0952Y0.7519Z-0.00642
G01 X1.0966Y0.7385Z-0.00648
G01 X1.0962Y0.7320Z-0.00651
G01 X1.0943Y0.7224Z-0.00656
G01 X1.0894Y0.7104Z-0.00661
G01 X1.0858Y0.7045Z-0.00663
G01 X1.0796Y0.6969Z-0.00666
G01 X1.0696Y0.6886Z-0.00668
G01 X1.06960Y0.50160Z-0.00745 ;segmented line. Max segment length set to 0.187
G01 X1.0696Y0.4894Z-0.00750
G01 X1.0752Y0.4852Z-0.00752
G01 X1.0828Y0.4774Z-0.00756
G01 X1.0870Y0.4718Z-0.00759
G01 X1.0920Y0.4622Z-0.00763
G01 X1.0943Y0.4556Z-0.00766
G01 X1.0963Y0.4449Z-0.00770
G01 X1.0966Y0.4379Z-0.00772
G01 X1.0954Y0.4272Z-0.00776
G01 X1.0937Y0.4204Z-0.00778
G01 X1.0894Y0.4104Z-0.00780
G01 X1.0835Y0.4014Z-0.00782
G01 X1.0789Y0.3961Z-0.00783
G01 X1.0736Y0.3915Z-0.00784
G01 X1.0646Y0.3856Z-0.00784
G01 X1.0582Y0.3826Z-0.00784
G01 X1.0478Y0.3796Z-0.00783
G01 X1.0371Y0.3784Z-0.00781
G01 X1.0301Y0.3787Z-0.00779
G01 X1.0231Y0.3798Z-0.00778
G01 X1.0128Y0.3830Z-0.00774
G01 X1.0065Y0.3861Z-0.00772
G01 X0.9976Y0.3922Z-0.00768
G01 X0.9924Y0.3969Z-0.00766
G01 X0.9860Y0.4048Z-0.00762
G01 X0.9789Y0.3961Z-0.00763
G01 X0.9697Y0.3886Z-0.00764
G01 X0.9592Y0.3830Z-0.00764
G01 X0.9478Y0.3796Z-0.00762
G01 X0.9360Y0.3784Z-0.00760
G01 X0.9242Y0.3796Z-0.00758
G01 X0.9128Y0.3830Z-0.00754
G01 X0.9023Y0.3886Z-0.00750
G01 X0.8931Y0.3961Z-0.00746
G01 X0.8856Y0.4053Z-0.00741
G01 X0.8800Y0.4158Z-0.00736
G01 X0.8764Y0.4282Z-0.00731
G01 X0.8754Y0.4379Z-0.00728
G01 X0.8757Y0.4449Z-0.00726
G01 X0.8768Y0.4519Z-0.00723
G01 X0.8800Y0.4622Z-0.00721
G01 X0.8831Y0.4685Z-0.00719
G01 X0.8892Y0.4774Z-0.00717
G01 X0.8968Y0.4852Z-0.00716
G01 X0.9024Y0.4894Z-0.00716
G01 X0.9024Y0.4904Z-0.00716
G01 X0.8950Y0.4965Z-0.00712
G01 X0.8897Y0.5023Z-0.00709
G01 X0.8844Y0.5102Z-0.00705
G01 X0.8814Y0.5164Z-0.00703
G01 X0.8792Y0.5229Z-0.00700
G01 X0.8772Y0.5332Z-0.00696
G01 X0.8769Y0.5401Z-0.00693
G01 X0.8779Y0.5497Z-0.00690
G01 X0.7925Y0.6356Z-0.00634
G01 X0.7898Y0.6216Z-0.00638
G01 X0.7864Y0.6133Z-0.00640
G01 X0.7831Y0.6076Z-0.00641
G01 X0.7791Y0.6023Z-0.00642
G01 X0.7727Y0.5959Z-0.00643
G01 X0.7625Y0.5890Z-0.00642
G01 X0.7727Y0.5821Z-0.00648
G01 X0.7791Y0.5757Z-0.00652
G01 X0.7831Y0.5704Z-0.00655
G01 X0.7887Y0.5597Z-0.00661
G01 X0.7913Y0.5511Z-0.00665
G01 X0.7923Y0.5445Z-0.00668
G01 X0.7926Y0.5379Z-0.00670
G01 X0.7915Y0.5280Z-0.00674
G01 X0.7898Y0.5216Z-0.00676
G01 X0.7859Y0.5123Z-0.00678
G01 X0.7804Y0.5039Z-0.00680
G01 X0.7760Y0.4990Z-0.00681
G01 X0.7683Y0.4925Z-0.00682
G01 X0.7625Y0.4890Z-0.00681
G01 X0.7719Y0.4828Z-0.00686
G01 X0.7804Y0.4741Z-0.00692
G01 X0.7879Y0.4616Z-0.00698
G01 X0.7915Y0.4500Z-0.00704
G01 X0.7926Y0.4401Z-0.00708
G01 X0.7922Y0.4324Z-0.00711
G01 X0.7902Y0.4226Z-0.00714
G01 X0.7864Y0.4133Z-0.00717
G01 X0.7825Y0.4067Z-0.00718
G01 X0.7760Y0.3990Z-0.00720
G01 X0.7683Y0.3925Z-0.00721
G01 X0.7625Y0.3890Z-0.00721
G01 X0.7683Y0.3855Z-0.00723
G01 X0.7760Y0.3790Z-0.00728
G01 X0.7804Y0.3741Z-0.00730
G01 X0.7859Y0.3657Z-0.00735
G01 X0.7898Y0.3564Z-0.00739
G01 X0.7915Y0.3500Z-0.00742
G01 X0.7926Y0.3401Z-0.00746
G01 X0.7923Y0.3335Z-0.00748
G01 X0.7913Y0.3269Z-0.00751
G01 X0.7883Y0.3173Z-0.00754
G01 X0.7836Y0.3085Z-0.00756
G01 X0.7791Y0.3023Z-0.00758
G01 X0.7727Y0.2959Z-0.00759
G01 X0.7665Y0.2914Z-0.00760
G01 X0.7577Y0.2867Z-0.00761
G01 X0.7493Y0.2840Z-0.00760
G01 X0.93629Y0.28635Z-0.00792 ;segmented line. Max segment length set to 0.187
G01 X1.0354Y0.2876Z-0.00811
G01 X1.1173Y0.2876Z-0.00828
G01 X1.1729Y0.3423Z-0.00820
G01 X1.1742Y0.3524Z-0.00817
G01 X1.1780Y0.3642Z-0.00814
G01 X1.1834Y0.3741Z-0.00812
G01 X1.1913Y0.3837Z-0.00810
G01 X1.2009Y0.3916Z-0.00809
G01 X1.2118Y0.3974Z-0.00809
G01 X1.2237Y0.4010Z-0.00811
G01 X1.2360Y0.4023Z-0.00813
G01 X1.2483Y0.4010Z-0.00816
G01 X1.2602Y0.3974Z-0.00819
G01 X1.2711Y0.3916Z-0.00823
G01 X1.2807Y0.3837Z-0.00828
G01 X1.2886Y0.3741Z-0.00833
G01 X1.2944Y0.3632Z-0.00838
G01 X1.2980Y0.3513Z-0.00843
G01 X1.2992Y0.3403Z-0.00847
G01 X1.3535Y0.2876Z-0.00879
G01 X1.3992Y0.2876Z-0.00890
G00 Z0.1000
G00 Z0.1000
G00 X0Y0
M05
